assets/lut/GreyScale.CUBE
#Created by: Adobe Photoshop Export Color Lookup Plugin
TITLE "Screenshot 2024-03-20 at 07.27.32.png"
#LUT size
LUT_3D_SIZE 5
#data domain
#LUT data points
DOMAIN_MIN 0.000000 0.000000 0.000000
DOMAIN_MAX 0.903226 0.903226 0.903226
0.000000 0.000000 0.000000
0.053925 0.072174 0.114594
0.134369 0.164276 0.213989
0.220428 0.256378 0.308350
0.309998 0.348480 0.399567
0.053925 0.072174 0.114594
0.093140 0.118225 0.165131
0.176910 0.210327 0.261627
0.264740 0.302429 0.354248
0.355896 0.394501 0.444275
0.134369 0.164276 0.213989
0.176910 0.210327 0.261627
0.220428 0.256378 0.308350
0.309998 0.348480 0.399567
0.402161 0.440582 0.488525
0.220428 0.256378 0.308350
0.264740 0.302429 0.354248
0.309998 0.348480 0.399567
0.355927 0.394562 0.444305
0.449219 0.486603 0.532318
0.309998 0.348480 0.399567
0.355896 0.394501 0.444275
0.402161 0.440582 0.488525
0.449219 0.486603 0.532318
0.496765 0.532684 0.575745
0.017395 0.026123 0.061371
0.134369 0.164276 0.213989
0.220428 0.256378 0.308350
0.309998 0.348480 0.399567
0.402161 0.440582 0.488525
0.093140 0.118225 0.165131
0.176971 0.210388 0.261688
0.264801 0.302490 0.354309
0.355957 0.394592 0.444336
0.449280 0.486694 0.532379
0.176910 0.210327 0.261627
0.264801 0.302490 0.354309
0.310028 0.348511 0.399597
0.402222 0.440643 0.488586
0.496796 0.532715 0.575775
0.264740 0.302429 0.354248
0.355957 0.394592 0.444336
0.402222 0.440643 0.488586
0.449280 0.486694 0.532379
0.544586 0.578766 0.618835
0.355896 0.394501 0.444275
0.449280 0.486694 0.532379
0.496796 0.532715 0.575775
0.544586 0.578766 0.618835
0.593018 0.624847 0.661560
0.053925 0.072174 0.114594
0.176910 0.210327 0.261627
0.309998 0.348480 0.399567
0.402161 0.440582 0.488525
0.496765 0.532684 0.575745
0.134369 0.164276 0.213989
0.220490 0.256409 0.308380
0.355957 0.394592 0.444336
0.449280 0.486694 0.532379
0.544586 0.578766 0.618835
0.220428 0.256378 0.308350
0.310028 0.348511 0.399597
0.402252 0.440674 0.488617
0.496887 0.532776 0.575806
0.593079 0.624878 0.661591
0.309998 0.348480 0.399567
0.402222 0.440643 0.488586
0.496887 0.532776 0.575806
0.544647 0.578857 0.618866
0.641937 0.670929 0.704041
0.402161 0.440582 0.488525
0.496796 0.532715 0.575775
0.593079 0.624878 0.661591
0.641937 0.670929 0.704041
0.690857 0.716980 0.746155
0.093170 0.118256 0.165161
0.220428 0.256378 0.308350
0.355896 0.394501 0.444275
0.496765 0.532684 0.575745
0.592957 0.624786 0.661499
0.176910 0.210327 0.261627
0.264801 0.302490 0.354309
0.402191 0.440613 0.488556
0.544586 0.578766 0.618835
0.641846 0.670868 0.703979
0.264740 0.302429 0.354248
0.355957 0.394592 0.444336
0.449341 0.486755 0.532440
0.593109 0.624908 0.661621
0.690857 0.716980 0.746155
0.355927 0.394562 0.444305
0.449280 0.486694 0.532379
0.544647 0.578857 0.618866
0.641998 0.670990 0.704071
0.740509 0.763092 0.788086
0.449219 0.486603 0.532318
0.544586 0.578766 0.618835
0.641937 0.670929 0.704041
0.740509 0.763092 0.788086
0.790405 0.809143 0.829742
0.134369 0.164276 0.213989
0.264740 0.302429 0.354248
0.402161 0.440582 0.488525
0.544556 0.578735 0.618805
0.690765 0.716888 0.746063
0.220428 0.256378 0.308350
0.310059 0.348541 0.399628
0.449280 0.486694 0.532379
0.593018 0.624847 0.661560
0.740387 0.762970 0.787994
0.309998 0.348480 0.399567
0.402191 0.440613 0.488556
0.496887 0.532776 0.575806
0.641937 0.670929 0.704041
0.790314 0.809082 0.829681
0.402161 0.440582 0.488525
0.496857 0.532745 0.575806
0.593079 0.624878 0.661591
0.690918 0.717041 0.746216
0.840363 0.855194 0.871155
0.496765 0.532684 0.575745
0.593018 0.624847 0.661560
0.690857 0.716980 0.746155
0.790405 0.809143 0.829742
0.890930 0.901306 0.912384
