assets/lut/GreyScale.CUBE
#Created by: Adobe Photoshop Export Color Lookup Plugin
TITLE "Screenshot 2024-03-20 at 07.27.32.png"
#LUT size
LUT_3D_SIZE 32
#data domain
DOMAIN_MIN 0.0 0.0 0.0
DOMAIN_MAX 1.0 1.0 1.0
#LUT data points
0.000000 0.000000 0.000000
0.000000 0.000000 0.019867
0.003662 0.006378 0.037048
0.012695 0.019562 0.053406
0.022430 0.032715 0.069214
0.032623 0.045837 0.084595
0.043152 0.059021 0.099731
0.053925 0.072174 0.114594
0.064972 0.085358 0.129272
0.076172 0.098480 0.143707
0.087524 0.111633 0.158020
0.099060 0.124817 0.172211
0.110687 0.137939 0.186218
0.122467 0.151123 0.200165
0.134369 0.164276 0.213989
0.146362 0.177429 0.227692
0.158508 0.190613 0.241364
0.170685 0.203735 0.254883
0.182953 0.216919 0.268372
0.195343 0.230072 0.281769
0.207764 0.243225 0.295074
0.220428 0.256378 0.308350
0.233124 0.269562 0.321533
0.245758 0.282684 0.334656
0.258484 0.295837 0.347748
0.271271 0.309021 0.360779
0.284149 0.322174 0.373779
0.297028 0.335327 0.386658
0.309998 0.348480 0.399567
0.323029 0.361633 0.412415
0.336060 0.374786 0.425171
0.349213 0.387939 0.437927
0.000000 0.000000 0.019867
0.000000 0.000000 0.028625
0.008026 0.012970 0.045319
0.017395 0.026123 0.061371
0.027405 0.039276 0.076965
0.037750 0.052460 0.092224
0.048431 0.065613 0.107208
0.059326 0.078735 0.121918
0.070435 0.091919 0.136505
0.081726 0.105072 0.150909
0.093140 0.118225 0.165131
0.104889 0.131378 0.179230
0.116699 0.144562 0.193237
0.128510 0.157684 0.207062
0.140472 0.170837 0.220856
0.152527 0.184021 0.234528
0.164673 0.197174 0.248138
0.176941 0.210358 0.261658
0.189240 0.223480 0.275055
0.201660 0.236633 0.288422
0.214142 0.249817 0.301727
0.226685 0.262939 0.314941
0.239288 0.276123 0.328094
0.252014 0.289276 0.341217
0.264740 0.302429 0.354248
0.277557 0.315582 0.367279
0.290466 0.328735 0.380219
0.303406 0.341919 0.393127
0.316376 0.355042 0.405975
0.329407 0.368225 0.418793
0.342682 0.381378 0.431580
0.355896 0.394501 0.444275
0.003662 0.006378 0.037048
0.008026 0.012970 0.045319
0.012695 0.019562 0.053406
0.022430 0.032715 0.069214
0.032623 0.045837 0.084595
0.043152 0.059021 0.099731
0.053925 0.072174 0.114594
0.064972 0.085358 0.129272
0.076172 0.098480 0.143707
0.087524 0.111633 0.158020
0.099060 0.124817 0.172211
0.110687 0.137939 0.186218
0.122467 0.151123 0.200165
0.134369 0.164276 0.213989
0.146362 0.177429 0.227692
0.158478 0.190582 0.241333
0.170685 0.203735 0.254883
0.182953 0.216919 0.268372
0.195343 0.230072 0.281769
0.207764 0.243225 0.295074
0.220428 0.256378 0.308350
0.233124 0.269562 0.321533
0.245758 0.282684 0.334656
0.258484 0.295837 0.347748
0.271271 0.309021 0.360779
0.284149 0.322174 0.373779
0.297028 0.335327 0.386658
0.309998 0.348480 0.399567
0.323029 0.361633 0.412415
0.336060 0.374786 0.425171
0.349213 0.387939 0.437927
0.362366 0.401123 0.450653
0.012695 0.019562 0.053406
0.017395 0.026123 0.061371
0.022430 0.032715 0.069214
0.027405 0.039276 0.076965
0.037750 0.052460 0.092224
0.048431 0.065613 0.107208
0.059326 0.078735 0.121918
0.070435 0.091919 0.136505
0.081726 0.105072 0.150909
0.093140 0.118225 0.165131
0.104889 0.131378 0.179230
0.116699 0.144562 0.193237
0.128510 0.157684 0.207062
0.140472 0.170837 0.220856
0.152527 0.184021 0.234528
0.164642 0.197144 0.248108
0.176941 0.210358 0.261658
0.189240 0.223480 0.275055
0.201660 0.236633 0.288422
0.214142 0.249817 0.301727
0.226685 0.262939 0.314941
0.239288 0.276123 0.328094
0.252014 0.289276 0.341217
0.264740 0.302429 0.354248
0.277557 0.315582 0.367279
0.290466 0.328735 0.380219
0.303406 0.341919 0.393127
0.316376 0.355042 0.405975
0.329407 0.368225 0.418793
0.342682 0.381378 0.431580
0.355896 0.394501 0.444275
0.369080 0.407684 0.456970
0.022430 0.032715 0.069214
0.027405 0.039276 0.076965
0.032623 0.045837 0.084595
0.037750 0.052460 0.092224
0.043152 0.059021 0.099731
0.053925 0.072174 0.114594
0.064972 0.085358 0.129272
0.076172 0.098480 0.143707
0.087524 0.111633 0.158020
0.099060 0.124817 0.172211
0.110687 0.137939 0.186218
0.122467 0.151123 0.200165
0.134369 0.164276 0.213989
0.146362 0.177429 0.227692
0.158478 0.190582 0.241333
0.170685 0.203735 0.254883
0.182953 0.216919 0.268372
0.195343 0.230072 0.281769
0.207764 0.243225 0.295074
0.220428 0.256378 0.308350
0.233124 0.269562 0.321533
0.245758 0.282684 0.334656
0.258484 0.295837 0.347748
0.271271 0.309021 0.360779
0.284149 0.322174 0.373779
0.297028 0.335327 0.386658
0.309998 0.348480 0.399567
0.323029 0.361633 0.412415
0.336060 0.374786 0.425171
0.349213 0.387939 0.437927
0.362366 0.401123 0.450653
0.375580 0.414246 0.463287
0.032623 0.045837 0.084595
0.037750 0.052460 0.092224
0.043152 0.059021 0.099731
0.048431 0.065613 0.107208
0.053925 0.072174 0.114594
0.059326 0.078735 0.121918
0.070435 0.091919 0.136505
0.081726 0.105072 0.150909
0.093140 0.118225 0.165131
0.104889 0.131378 0.179230
0.116699 0.144562 0.193237
0.128510 0.157684 0.207062
0.140472 0.170837 0.220856
0.152527 0.184021 0.234528
0.164642 0.197144 0.248108
0.176910 0.210327 0.261627
0.189240 0.223480 0.275055
0.201660 0.236633 0.288422
0.214142 0.249817 0.301727
0.226685 0.262939 0.314941
0.239288 0.276123 0.328094
0.252014 0.289276 0.341217
0.264740 0.302429 0.354248
0.277557 0.315582 0.367279
0.290466 0.328735 0.380219
0.303406 0.341919 0.393127
0.316376 0.355042 0.405975
0.329407 0.368225 0.418793
0.342682 0.381378 0.431580
0.355896 0.394501 0.444275
0.369080 0.407684 0.456970
0.382355 0.420837 0.469635
0.043152 0.059021 0.099731
0.048431 0.065613 0.107208
0.053925 0.072174 0.114594
0.059326 0.078735 0.121918
0.064972 0.085358 0.129272
0.070435 0.091919 0.136505
0.076172 0.098480 0.143707
0.087524 0.111633 0.158020
0.099060 0.124817 0.172211
0.110687 0.137939 0.186218
0.122467 0.151123 0.200165
0.134369 0.164276 0.213989
0.146362 0.177429 0.227692
0.158478 0.190582 0.241333
0.170685 0.203735 0.254883
0.182953 0.216919 0.268372
0.195343 0.230072 0.281769
0.207764 0.243225 0.295074
0.220428 0.256378 0.308350
0.233124 0.269562 0.321533
0.245758 0.282684 0.334656
0.258484 0.295837 0.347748
0.271271 0.309021 0.360779
0.284149 0.322174 0.373779
0.297028 0.335327 0.386658
0.309998 0.348480 0.399567
0.323029 0.361633 0.412415
0.336060 0.374786 0.425171
0.349213 0.387939 0.437927
0.362366 0.401123 0.450653
0.375580 0.414246 0.463287
0.388855 0.427429 0.475922
0.053925 0.072174 0.114594
0.059326 0.078735 0.121918
0.064972 0.085358 0.129272
0.070435 0.091919 0.136505
0.076172 0.098480 0.143707
0.081726 0.105072 0.150909
0.087524 0.111633 0.158020
0.093140 0.118225 0.165131
0.104889 0.131378 0.179230
0.116699 0.144562 0.193237
0.128510 0.157684 0.207062
0.140472 0.170837 0.220856
0.152527 0.184021 0.234528
0.164642 0.197144 0.248108
0.176910 0.210327 0.261627
0.189240 0.223480 0.275055
0.201660 0.236633 0.288422
0.214142 0.249817 0.301727
0.226685 0.262939 0.314941
0.239288 0.276123 0.328094
0.252014 0.289276 0.341217
0.264740 0.302429 0.354248
0.277557 0.315582 0.367279
0.290466 0.328735 0.380219
0.303406 0.341919 0.393127
0.316376 0.355042 0.405975
0.329407 0.368225 0.418793
0.342682 0.381378 0.431580
0.355896 0.394501 0.444275
0.369080 0.407684 0.456970
0.382355 0.420837 0.469635
0.395599 0.433990 0.482208
0.064972 0.085358 0.129272
0.070435 0.091919 0.136505
0.076172 0.098480 0.143707
0.081726 0.105072 0.150909
0.087524 0.111633 0.158020
0.093140 0.118225 0.165131
0.099060 0.124817 0.172211
0.104889 0.131378 0.179230
0.110687 0.137939 0.186218
0.122467 0.151123 0.200165
0.134369 0.164276 0.213989
0.146362 0.177429 0.227692
0.158478 0.190582 0.241333
0.170685 0.203735 0.254883
0.182953 0.216919 0.268372
0.195312 0.230042 0.281738
0.207764 0.243225 0.295074
0.220428 0.256378 0.308350
0.233124 0.269562 0.321533
0.245758 0.282684 0.334656
0.258484 0.295837 0.347748
0.271271 0.309021 0.360779
0.284149 0.322174 0.373779
0.297028 0.335327 0.386658
0.309998 0.348480 0.399567
0.323029 0.361633 0.412415
0.336060 0.374786 0.425171
0.349213 0.387939 0.437927
0.362366 0.401123 0.450653
0.375580 0.414246 0.463287
0.388855 0.427429 0.475922
0.402161 0.440582 0.488525
0.076172 0.098480 0.143707
0.081726 0.105072 0.150909
0.087524 0.111633 0.158020
0.093140 0.118225 0.165131
0.099060 0.124817 0.172211
0.104889 0.131378 0.179230
0.110687 0.137939 0.186218
0.116699 0.144562 0.193237
0.122467 0.151123 0.200165
0.128510 0.157684 0.207062
0.140472 0.170837 0.220856
0.152527 0.184021 0.234528
0.164642 0.197144 0.248108
0.176910 0.210327 0.261627
0.189240 0.223480 0.275055
0.201660 0.236633 0.288422
0.214142 0.249817 0.301727
0.226685 0.262939 0.314941
0.239288 0.276123 0.328094
0.252014 0.289276 0.341217
0.264740 0.302429 0.354248
0.277557 0.315582 0.367279
0.290466 0.328735 0.380219
0.303406 0.341919 0.393127
0.316376 0.355042 0.405975
0.329407 0.368225 0.418793
0.342682 0.381378 0.431580
0.355896 0.394501 0.444275
0.369080 0.407684 0.456970
0.382355 0.420837 0.469635
0.395599 0.433990 0.482208
0.408966 0.447144 0.494781
0.087524 0.111633 0.158020
0.093140 0.118225 0.165131
0.099060 0.124817 0.172211
0.104889 0.131378 0.179230
0.110687 0.137939 0.186218
0.116699 0.144562 0.193237
0.122467 0.151123 0.200165
0.128510 0.157684 0.207062
0.134369 0.164276 0.213989
0.140472 0.170837 0.220856
0.146362 0.177429 0.227692
0.158478 0.190582 0.241333
0.170685 0.203735 0.254883
0.182953 0.216919 0.268372
0.195312 0.230042 0.281738
0.207764 0.243225 0.295074
0.220428 0.256378 0.308350
0.233124 0.269562 0.321533
0.245758 0.282684 0.334656
0.258484 0.295837 0.347748
0.271271 0.309021 0.360779
0.284149 0.322174 0.373779
0.297028 0.335327 0.386658
0.309998 0.348480 0.399567
0.323029 0.361633 0.412415
0.336060 0.374786 0.425171
0.349213 0.387939 0.437927
0.362366 0.401123 0.450653
0.375580 0.414246 0.463287
0.388855 0.427429 0.475922
0.402161 0.440582 0.488525
0.415497 0.453705 0.501068
0.099060 0.124817 0.172211
0.104889 0.131378 0.179230
0.110687 0.137939 0.186218
0.116699 0.144562 0.193237
0.122467 0.151123 0.200165
0.128510 0.157684 0.207062
0.134369 0.164276 0.213989
0.140472 0.170837 0.220856
0.146362 0.177429 0.227692
0.152527 0.184021 0.234528
0.158478 0.190582 0.241333
0.164642 0.197144 0.248108
0.176910 0.210327 0.261627
0.189240 0.223480 0.275055
0.201660 0.236633 0.288422
0.214111 0.249786 0.301697
0.226685 0.262939 0.314941
0.239288 0.276123 0.328094
0.252014 0.289276 0.341217
0.264740 0.302429 0.354248
0.277557 0.315582 0.367279
0.290466 0.328735 0.380219
0.303406 0.341919 0.393127
0.316376 0.355042 0.405975
0.329407 0.368225 0.418793
0.342682 0.381378 0.431580
0.355896 0.394501 0.444275
0.369080 0.407684 0.456970
0.382355 0.420837 0.469635
0.395599 0.433990 0.482208
0.408966 0.447144 0.494781
0.422333 0.460327 0.507355
0.110687 0.137939 0.186218
0.116699 0.144562 0.193237
0.122467 0.151123 0.200165
0.128510 0.157684 0.207062
0.134369 0.164276 0.213989
0.140472 0.170837 0.220856
0.146362 0.177429 0.227692
0.152527 0.184021 0.234528
0.158478 0.190582 0.241333
0.164642 0.197144 0.248108
0.170685 0.203735 0.254883
0.176910 0.210327 0.261627
0.182953 0.216919 0.268372
0.195312 0.230042 0.281738
0.207764 0.243225 0.295074
0.220428 0.256378 0.308350
0.233124 0.269562 0.321533
0.245758 0.282684 0.334656
0.258484 0.295837 0.347748
0.271271 0.309021 0.360779
0.284149 0.322174 0.373779
0.297028 0.335327 0.386658
0.309998 0.348480 0.399567
0.323029 0.361633 0.412415
0.336060 0.374786 0.425171
0.349213 0.387939 0.437927
0.362366 0.401123 0.450653
0.375580 0.414246 0.463287
0.388855 0.427429 0.475922
0.402161 0.440582 0.488525
0.415497 0.453705 0.501068
0.428894 0.466888 0.513580
0.122467 0.151123 0.200165
0.128510 0.157684 0.207062
0.134369 0.164276 0.213989
0.140472 0.170837 0.220856
0.146362 0.177429 0.227692
0.152527 0.184021 0.234528
0.158478 0.190582 0.241333
0.164642 0.197144 0.248108
0.170685 0.203735 0.254883
0.176910 0.210327 0.261627
0.182953 0.216919 0.268372
0.189240 0.223480 0.275055
0.195312 0.230042 0.281738
0.201660 0.236633 0.288422
0.214111 0.249786 0.301697
0.226685 0.262939 0.314941
0.239288 0.276123 0.328094
0.252014 0.289276 0.341217
0.264740 0.302429 0.354248
0.277557 0.315582 0.367279
0.290466 0.328735 0.380219
0.303406 0.341919 0.393127
0.316376 0.355042 0.405975
0.329407 0.368225 0.418793
0.342682 0.381378 0.431580
0.355896 0.394501 0.444275
0.369080 0.407684 0.456970
0.382355 0.420837 0.469635
0.395599 0.433990 0.482208
0.408966 0.447144 0.494781
0.422333 0.460327 0.507355
0.435760 0.473480 0.519867
0.134369 0.164276 0.213989
0.140472 0.170837 0.220856
0.146362 0.177429 0.227692
0.152527 0.184021 0.234528
0.158478 0.190582 0.241333
0.164642 0.197144 0.248108
0.170685 0.203735 0.254883
0.176910 0.210327 0.261627
0.182953 0.216919 0.268372
0.189240 0.223480 0.275055
0.195312 0.230042 0.281738
0.201660 0.236633 0.288422
0.207764 0.243225 0.295074
0.214111 0.249786 0.301697
0.220428 0.256378 0.308350
0.233093 0.269501 0.321503
0.245758 0.282684 0.334656
0.258484 0.295837 0.347748
0.271271 0.309021 0.360779
0.284149 0.322174 0.373779
0.297028 0.335327 0.386658
0.309998 0.348480 0.399567
0.323029 0.361633 0.412415
0.336060 0.374786 0.425171
0.349213 0.387939 0.437927
0.362366 0.401123 0.450653
0.375580 0.414246 0.463287
0.388855 0.427429 0.475922
0.402161 0.440582 0.488525
0.415497 0.453705 0.501068
0.428894 0.466888 0.513580
0.442352 0.480042 0.526093
0.146362 0.177429 0.227692
0.152527 0.184021 0.234528
0.158478 0.190582 0.241333
0.164642 0.197144 0.248108
0.170685 0.203735 0.254883
0.176910 0.210327 0.261627
0.182953 0.216919 0.268372
0.189240 0.223480 0.275055
0.195312 0.230042 0.281738
0.201660 0.236633 0.288422
0.207764 0.243225 0.295074
0.214111 0.249786 0.301697
0.220428 0.256378 0.308350
0.226685 0.262939 0.314941
0.233093 0.269501 0.321503
0.239288 0.276123 0.328094
0.252014 0.289276 0.341217
0.264740 0.302429 0.354248
0.277557 0.315582 0.367279
0.290466 0.328735 0.380219
0.303406 0.341919 0.393127
0.316376 0.355042 0.405975
0.329407 0.368225 0.418793
0.342682 0.381378 0.431580
0.355896 0.394501 0.444275
0.369080 0.407684 0.456970
0.382355 0.420837 0.469635
0.395599 0.433990 0.482208
0.408966 0.447144 0.494781
0.422333 0.460327 0.507355
0.435760 0.473480 0.519867
0.449219 0.486603 0.532318
0.158508 0.190613 0.241364
0.164673 0.197174 0.248138
0.170685 0.203735 0.254883
0.176941 0.210358 0.261658
0.182953 0.216919 0.268372
0.189240 0.223480 0.275055
0.195343 0.230072 0.281769
0.201660 0.236633 0.288422
0.207764 0.243225 0.295074
0.214142 0.249817 0.301727
0.220428 0.256378 0.308350
0.226685 0.262939 0.314941
0.233124 0.269562 0.321533
0.239288 0.276123 0.328094
0.245758 0.282684 0.334656
0.252014 0.289276 0.341217
0.258484 0.295837 0.347748
0.271271 0.309021 0.360779
0.284149 0.322174 0.373779
0.297028 0.335327 0.386658
0.309998 0.348480 0.399567
0.323029 0.361633 0.412415
0.336090 0.374817 0.425201
0.349213 0.387939 0.437927
0.362366 0.401123 0.450653
0.375610 0.414276 0.463318
0.388855 0.427429 0.475922
0.402161 0.440582 0.488525
0.415527 0.453735 0.501099
0.428894 0.466888 0.513580
0.442352 0.480042 0.526093
0.455841 0.493225 0.538544
0.170685 0.203735 0.254883
0.176941 0.210358 0.261658
0.182953 0.216919 0.268372
0.189240 0.223480 0.275055
0.195343 0.230072 0.281769
0.201660 0.236633 0.288422
0.207764 0.243225 0.295074
0.214142 0.249817 0.301727
0.220428 0.256378 0.308350
0.226685 0.262939 0.314941
0.233124 0.269562 0.321533
0.239288 0.276123 0.328094
0.245758 0.282684 0.334656
0.252014 0.289276 0.341217
0.258484 0.295837 0.347748
0.264740 0.302429 0.354248
0.271271 0.309021 0.360779
0.277557 0.315582 0.367279
0.290466 0.328735 0.380219
0.303406 0.341919 0.393127
0.316376 0.355042 0.405975
0.329407 0.368225 0.418793
0.342682 0.381378 0.431580
0.355927 0.394562 0.444305
0.369080 0.407684 0.456970
0.382355 0.420837 0.469635
0.395630 0.434021 0.482239
0.408966 0.447144 0.494781
0.422333 0.460327 0.507355
0.435760 0.473480 0.519867
0.449219 0.486603 0.532318
0.462708 0.499786 0.544769
0.182953 0.216919 0.268372
0.189240 0.223480 0.275055
0.195343 0.230072 0.281769
0.201660 0.236633 0.288422
0.207764 0.243225 0.295074
0.214142 0.249817 0.301727
0.220428 0.256378 0.308350
0.226685 0.262939 0.314941
0.233124 0.269562 0.321533
0.239288 0.276123 0.328094
0.245758 0.282684 0.334656
0.252014 0.289276 0.341217
0.258484 0.295837 0.347748
0.264740 0.302429 0.354248
0.271271 0.309021 0.360779
0.277557 0.315582 0.367279
0.284149 0.322174 0.373779
0.290466 0.328735 0.380219
0.297028 0.335327 0.386658
0.309998 0.348480 0.399567
0.323029 0.361633 0.412415
0.336090 0.374817 0.425201
0.349213 0.387939 0.437927
0.362366 0.401123 0.450653
0.375610 0.414276 0.463318
0.388855 0.427429 0.475922
0.402161 0.440582 0.488525
0.415527 0.453735 0.501099
0.428894 0.466888 0.513580
0.442352 0.480042 0.526093
0.455841 0.493225 0.538544
0.469482 0.506348 0.550964
0.195343 0.230072 0.281769
0.201660 0.236633 0.288422
0.207764 0.243225 0.295074
0.214142 0.249817 0.301727
0.220428 0.256378 0.308350
0.226685 0.262939 0.314941
0.233124 0.269562 0.321533
0.239288 0.276123 0.328094
0.245758 0.282684 0.334656
0.252014 0.289276 0.341217
0.258484 0.295837 0.347748
0.264740 0.302429 0.354248
0.271271 0.309021 0.360779
0.277557 0.315582 0.367279
0.284149 0.322174 0.373779
0.290466 0.328735 0.380219
0.297028 0.335327 0.386658
0.303406 0.341919 0.393127
0.309998 0.348480 0.399567
0.316376 0.355042 0.405975
0.329407 0.368225 0.418793
0.342682 0.381378 0.431580
0.355927 0.394562 0.444305
0.369080 0.407684 0.456970
0.382355 0.420837 0.469635
0.395630 0.434021 0.482239
0.408966 0.447144 0.494781
0.422333 0.460327 0.507355
0.435760 0.473480 0.519867
0.449219 0.486603 0.532318
0.462708 0.499786 0.544769
0.476257 0.512939 0.557190
0.207764 0.243225 0.295074
0.214142 0.249817 0.301727
0.220428 0.256378 0.308350
0.226685 0.262939 0.314941
0.233124 0.269562 0.321533
0.239288 0.276123 0.328094
0.245758 0.282684 0.334656
0.252014 0.289276 0.341217
0.258484 0.295837 0.347748
0.264740 0.302429 0.354248
0.271271 0.309021 0.360779
0.277557 0.315582 0.367279
0.284149 0.322174 0.373779
0.290466 0.328735 0.380219
0.297028 0.335327 0.386658
0.303406 0.341919 0.393127
0.309998 0.348480 0.399567
0.316376 0.355042 0.405975
0.323029 0.361633 0.412415
0.329407 0.368225 0.418793
0.336090 0.374817 0.425201
0.349213 0.387939 0.437927
0.362366 0.401123 0.450653
0.375610 0.414276 0.463318
0.388855 0.427429 0.475922
0.402161 0.440582 0.488525
0.415527 0.453735 0.501099
0.428894 0.466888 0.513580
0.442352 0.480042 0.526093
0.455841 0.493225 0.538544
0.469482 0.506348 0.550964
0.483154 0.519501 0.563354
0.220428 0.256378 0.308350
0.226685 0.262939 0.314941
0.233124 0.269562 0.321533
0.239288 0.276123 0.328094
0.245758 0.282684 0.334656
0.252014 0.289276 0.341217
0.258484 0.295837 0.347748
0.264740 0.302429 0.354248
0.271271 0.309021 0.360779
0.277557 0.315582 0.367279
0.284149 0.322174 0.373779
0.290466 0.328735 0.380219
0.297028 0.335327 0.386658
0.303406 0.341919 0.393127
0.309998 0.348480 0.399567
0.316376 0.355042 0.405975
0.323029 0.361633 0.412415
0.329407 0.368225 0.418793
0.336090 0.374817 0.425201
0.342682 0.381378 0.431580
0.349213 0.387939 0.437927
0.355927 0.394562 0.444305
0.369080 0.407684 0.456970
0.382355 0.420837 0.469635
0.395630 0.434021 0.482239
0.408966 0.447144 0.494781
0.422333 0.460327 0.507355
0.435760 0.473480 0.519867
0.449219 0.486603 0.532318
0.462708 0.499786 0.544769
0.476257 0.512939 0.557190
0.489868 0.526123 0.569550
0.233124 0.269562 0.321533
0.239288 0.276123 0.328094
0.245758 0.282684 0.334656
0.252014 0.289276 0.341217
0.258484 0.295837 0.347748
0.264740 0.302429 0.354248
0.271271 0.309021 0.360779
0.277557 0.315582 0.367279
0.284149 0.322174 0.373779
0.290466 0.328735 0.380219
0.297028 0.335327 0.386658
0.303406 0.341919 0.393127
0.309998 0.348480 0.399567
0.316376 0.355042 0.405975
0.323029 0.361633 0.412415
0.329407 0.368225 0.418793
0.336090 0.374817 0.425201
0.342682 0.381378 0.431580
0.349213 0.387939 0.437927
0.355927 0.394562 0.444305
0.362366 0.401123 0.450653
0.369080 0.407684 0.456970
0.375610 0.414276 0.463318
0.388855 0.427429 0.475922
0.402161 0.440582 0.488525
0.415527 0.453735 0.501099
0.428894 0.466888 0.513580
0.442352 0.480042 0.526093
0.455841 0.493225 0.538544
0.469482 0.506348 0.550964
0.483154 0.519501 0.563354
0.496765 0.532684 0.575745
0.245758 0.282684 0.334656
0.252014 0.289276 0.341217
0.258484 0.295837 0.347748
0.264740 0.302429 0.354248
0.271271 0.309021 0.360779
0.277557 0.315582 0.367279
0.284149 0.322174 0.373779
0.290466 0.328735 0.380219
0.297028 0.335327 0.386658
0.303406 0.341919 0.393127
0.309998 0.348480 0.399567
0.316376 0.355042 0.405975
0.323029 0.361633 0.412415
0.329407 0.368225 0.418793
0.336060 0.374786 0.425171
0.342682 0.381378 0.431580
0.349213 0.387939 0.437927
0.355927 0.394562 0.444305
0.362366 0.401123 0.450653
0.369080 0.407684 0.456970
0.375610 0.414276 0.463318
0.382355 0.420837 0.469635
0.388855 0.427429 0.475922
0.395630 0.434021 0.482239
0.408966 0.447144 0.494781
0.422333 0.460327 0.507355
0.435760 0.473480 0.519867
0.449219 0.486603 0.532318
0.462708 0.499786 0.544769
0.476257 0.512939 0.557190
0.489868 0.526123 0.569550
0.503448 0.539246 0.581879
0.258484 0.295837 0.347748
0.264740 0.302429 0.354248
0.271271 0.309021 0.360779
0.277557 0.315582 0.367279
0.284149 0.322174 0.373779
0.290466 0.328735 0.380219
0.297028 0.335327 0.386658
0.303406 0.341919 0.393127
0.309998 0.348480 0.399567
0.316376 0.355042 0.405975
0.323029 0.361633 0.412415
0.329407 0.368225 0.418793
0.336060 0.374786 0.425171
0.342682 0.381378 0.431580
0.349213 0.387939 0.437927
0.355896 0.394501 0.444275
0.362366 0.401123 0.450653
0.369080 0.407684 0.456970
0.375610 0.414276 0.463318
0.382355 0.420837 0.469635
0.388855 0.427429 0.475922
0.395630 0.434021 0.482239
0.402161 0.440582 0.488525
0.408966 0.447144 0.494781
0.415527 0.453735 0.501099
0.428894 0.466888 0.513580
0.442352 0.480042 0.526093
0.455841 0.493225 0.538544
0.469482 0.506348 0.550964
0.483154 0.519501 0.563354
0.496765 0.532684 0.575745
0.510406 0.545837 0.588074
0.271271 0.309021 0.360779
0.277557 0.315582 0.367279
0.284149 0.322174 0.373779
0.290466 0.328735 0.380219
0.297028 0.335327 0.386658
0.303406 0.341919 0.393127
0.309998 0.348480 0.399567
0.316376 0.355042 0.405975
0.323029 0.361633 0.412415
0.329407 0.368225 0.418793
0.336060 0.374786 0.425171
0.342682 0.381378 0.431580
0.349213 0.387939 0.437927
0.355896 0.394501 0.444275
0.362366 0.401123 0.450653
0.369080 0.407684 0.456970
0.375610 0.414276 0.463318
0.382355 0.420837 0.469635
0.388855 0.427429 0.475922
0.395630 0.434021 0.482239
0.402161 0.440582 0.488525
0.408966 0.447144 0.494781
0.415527 0.453735 0.501099
0.422333 0.460327 0.507355
0.428894 0.466888 0.513580
0.435760 0.473480 0.519867
0.449219 0.486603 0.532318
0.462708 0.499786 0.544769
0.476257 0.512939 0.557190
0.489868 0.526123 0.569550
0.503448 0.539246 0.581879
0.517120 0.552429 0.594238
0.284149 0.322174 0.373779
0.290466 0.328735 0.380219
0.297028 0.335327 0.386658
0.303406 0.341919 0.393127
0.309998 0.348480 0.399567
0.316376 0.355042 0.405975
0.323029 0.361633 0.412415
0.329407 0.368225 0.418793
0.336060 0.374786 0.425171
0.342682 0.381378 0.431580
0.349213 0.387939 0.437927
0.355896 0.394501 0.444275
0.362366 0.401123 0.450653
0.369080 0.407684 0.456970
0.375580 0.414246 0.463287
0.382355 0.420837 0.469635
0.388855 0.427429 0.475922
0.395630 0.434021 0.482239
0.402161 0.440582 0.488525
0.408966 0.447144 0.494781
0.415527 0.453735 0.501099
0.422333 0.460327 0.507355
0.428894 0.466888 0.513580
0.435760 0.473480 0.519867
0.442352 0.480042 0.526093
0.449219 0.486603 0.532318
0.455841 0.493225 0.538544
0.469482 0.506348 0.550964
0.483154 0.519501 0.563354
0.496765 0.532684 0.575745
0.510406 0.545837 0.588074
0.524078 0.558990 0.600372
0.297028 0.335327 0.386658
0.303406 0.341919 0.393127
0.309998 0.348480 0.399567
0.316376 0.355042 0.405975
0.323029 0.361633 0.412415
0.329407 0.368225 0.418793
0.336060 0.374786 0.425171
0.342682 0.381378 0.431580
0.349213 0.387939 0.437927
0.355896 0.394501 0.444275
0.362366 0.401123 0.450653
0.369080 0.407684 0.456970
0.375580 0.414246 0.463287
0.382355 0.420837 0.469635
0.388855 0.427429 0.475922
0.395599 0.433990 0.482208
0.402161 0.440582 0.488525
