assets/lut/GreyScale.CUBE
#Created by: Adobe Photoshop Export Color Lookup Plugin
TITLE "Screenshot 2024-03-20 at 07.27.32.png"
#LUT size
LUT_3D_SIZE 8
#data domain
#LUT data points
DOMAIN_MIN 0.000000 0.000000 0.000000
DOMAIN_MAX 0.903226 0.903226 0.903226
0.000000 0.000000 0.000000
0.022430 0.032715 0.069214
0.064972 0.085358 0.129272
0.110687 0.137939 0.186218
0.158508 0.190613 0.241364
0.207764 0.243225 0.295074
0.258484 0.295837 0.347748
0.309998 0.348480 0.399567
0.022430 0.032715 0.069214
0.043152 0.059021 0.099731
0.087524 0.111633 0.158020
0.134369 0.164276 0.213989
0.182953 0.216919 0.268372
0.233124 0.269562 0.321533
0.284149 0.322174 0.373779
0.336060 0.374786 0.425171
0.064972 0.085358 0.129272
0.087524 0.111633 0.158020
0.110687 0.137939 0.186218
0.158478 0.190582 0.241333
0.207764 0.243225 0.295074
0.258484 0.295837 0.347748
0.309998 0.348480 0.399567
0.362366 0.401123 0.450653
0.110687 0.137939 0.186218
0.134369 0.164276 0.213989
0.158478 0.190582 0.241333
0.182953 0.216919 0.268372
0.233124 0.269562 0.321533
0.284149 0.322174 0.373779
0.336060 0.374786 0.425171
0.388855 0.427429 0.475922
0.158508 0.190613 0.241364
0.182953 0.216919 0.268372
0.207764 0.243225 0.295074
0.233124 0.269562 0.321533
0.258484 0.295837 0.347748
0.309998 0.348480 0.399567
0.362366 0.401123 0.450653
0.415527 0.453735 0.501099
0.207764 0.243225 0.295074
0.233124 0.269562 0.321533
0.258484 0.295837 0.347748
0.284149 0.322174 0.373779
0.309998 0.348480 0.399567
0.336090 0.374817 0.425201
0.388855 0.427429 0.475922
0.442352 0.480042 0.526093
0.258484 0.295837 0.347748
0.284149 0.322174 0.373779
0.309998 0.348480 0.399567
0.336060 0.374786 0.425171
0.362366 0.401123 0.450653
0.388855 0.427429 0.475922
0.415527 0.453735 0.501099
0.469482 0.506348 0.550964
0.309998 0.348480 0.399567
0.336060 0.374786 0.425171
0.362366 0.401123 0.450653
0.388855 0.427429 0.475922
0.415527 0.453735 0.501099
0.442352 0.480042 0.526093
0.469482 0.506348 0.550964
0.496765 0.532684 0.575745
0.003662 0.006378 0.037048
0.064972 0.085358 0.129272
0.110687 0.137939 0.186218
0.158478 0.190582 0.241333
0.207764 0.243225 0.295074
0.258484 0.295837 0.347748
0.309998 0.348480 0.399567
0.362366 0.401123 0.450653
0.043152 0.059021 0.099731
0.087555 0.111694 0.158081
0.134399 0.164307 0.214020
0.182983 0.216949 0.268402
0.233124 0.269592 0.321564
0.284180 0.322205 0.373810
0.336090 0.374817 0.425201
0.388885 0.427460 0.475952
0.087524 0.111633 0.158020
0.134399 0.164307 0.214020
0.158508 0.190613 0.241364
0.207794 0.243256 0.295105
0.258514 0.295868 0.347778
0.310028 0.348511 0.399597
0.362396 0.401154 0.450684
0.415558 0.453766 0.501129
0.134369 0.164276 0.213989
0.182983 0.216949 0.268402
0.207794 0.243256 0.295105
0.233124 0.269562 0.321533
0.284180 0.322205 0.373810
0.336090 0.374817 0.425201
0.388885 0.427460 0.475952
0.442383 0.480072 0.526123
0.182953 0.216919 0.268372
0.233124 0.269592 0.321564
0.258514 0.295868 0.347778
0.284180 0.322205 0.373810
0.310028 0.348511 0.399597
0.362396 0.401154 0.450684
0.415558 0.453766 0.501129
0.469604 0.506409 0.551025
0.233124 0.269562 0.321533
0.284180 0.322205 0.373810
0.310028 0.348511 0.399597
0.336090 0.374817 0.425201
0.362396 0.401154 0.450684
0.388885 0.427460 0.475952
0.442383 0.480072 0.526123
0.496796 0.532715 0.575775
0.284149 0.322174 0.373779
0.336090 0.374817 0.425201
0.362396 0.401154 0.450684
0.388885 0.427460 0.475952
0.415558 0.453766 0.501129
0.442383 0.480072 0.526123
0.469604 0.506409 0.551025
0.524109 0.559021 0.600403
0.336060 0.374786 0.425171
0.388885 0.427460 0.475952
0.415558 0.453766 0.501129
0.442383 0.480072 0.526123
0.469604 0.506409 0.551025
0.496796 0.532715 0.575775
0.524109 0.559021 0.600403
0.551575 0.585358 0.624939
0.022430 0.032715 0.069214
0.087524 0.111633 0.158020
0.158478 0.190582 0.241333
0.207764 0.243225 0.295074
0.258484 0.295837 0.347748
0.309998 0.348480 0.399567
0.362366 0.401123 0.450653
0.415497 0.453705 0.501068
0.064972 0.085358 0.129272
0.110718 0.137970 0.186249
0.182983 0.216949 0.268402
0.233124 0.269562 0.321533
0.284180 0.322205 0.373810
0.336090 0.374817 0.425201
0.388885 0.427460 0.475952
0.442383 0.480072 0.526123
0.110687 0.137939 0.186218
0.158508 0.190613 0.241364
0.207825 0.243286 0.295135
0.258545 0.295898 0.347809
0.310059 0.348541 0.399628
0.362427 0.401184 0.450714
0.415588 0.453827 0.501160
0.469604 0.506409 0.551025
0.158478 0.190582 0.241333
0.207794 0.243256 0.295105
0.258545 0.295898 0.347809
0.284180 0.322205 0.373810
0.336121 0.374847 0.425232
0.388916 0.427490 0.475983
0.442413 0.480103 0.526154
0.496857 0.532745 0.575806
0.207764 0.243225 0.295074
0.258514 0.295868 0.347778
0.310059 0.348541 0.399628
0.336121 0.374847 0.425232
0.362427 0.401184 0.450714
0.415588 0.453827 0.501160
0.469666 0.506439 0.551056
0.524139 0.559052 0.600433
0.258484 0.295837 0.347748
0.310028 0.348511 0.399597
0.362427 0.401184 0.450714
0.388916 0.427490 0.475983
0.415588 0.453827 0.501160
0.442413 0.480103 0.526154
0.496857 0.532745 0.575806
0.551605 0.585388 0.624969
0.309998 0.348480 0.399567
0.362396 0.401154 0.450684
0.415588 0.453827 0.501160
0.442413 0.480103 0.526154
0.469666 0.506439 0.551056
0.496857 0.532745 0.575806
0.524139 0.559052 0.600433
0.579193 0.611694 0.649384
0.362366 0.401123 0.450653
0.415558 0.453766 0.501129
0.469604 0.506409 0.551025
0.496857 0.532745 0.575806
0.524139 0.559052 0.600433
0.551605 0.585388 0.624969
0.579193 0.611694 0.649384
0.606934 0.638000 0.673737
0.043152 0.059021 0.099731
0.110687 0.137939 0.186218
0.182953 0.216919 0.268372
0.258484 0.295837 0.347748
0.309998 0.348480 0.399567
0.362366 0.401123 0.450653
0.415497 0.453705 0.501068
0.469482 0.506348 0.550964
0.087524 0.111633 0.158020
0.134399 0.164307 0.214020
0.207794 0.243256 0.295105
0.284149 0.322174 0.373779
0.336090 0.374817 0.425201
0.388885 0.427460 0.475952
0.442383 0.480072 0.526123
0.496796 0.532715 0.575775
0.134369 0.164276 0.213989
0.182983 0.216949 0.268402
0.233124 0.269592 0.321564
0.310059 0.348541 0.399628
0.362427 0.401184 0.450714
0.415588 0.453827 0.501160
0.469604 0.506409 0.551025
0.524139 0.559052 0.600433
0.182953 0.216919 0.268372
0.233124 0.269562 0.321533
0.284180 0.322205 0.373810
0.336151 0.374878 0.425262
0.388947 0.427521 0.476013
0.442444 0.480133 0.526184
0.496887 0.532776 0.575806
0.551636 0.585419 0.625000
0.233124 0.269562 0.321533
0.284180 0.322205 0.373810
0.336121 0.374847 0.425232
0.388947 0.427521 0.476013
0.415619 0.453857 0.501190
0.469727 0.506470 0.551086
0.524170 0.559082 0.600464
0.579224 0.611725 0.649414
0.284149 0.322174 0.373779
0.336090 0.374817 0.425201
0.388916 0.427490 0.475983
0.442444 0.480133 0.526184
0.469727 0.506470 0.551086
0.496887 0.532776 0.575806
0.551636 0.585419 0.625000
0.606964 0.638031 0.673767
0.336060 0.374786 0.425171
0.388885 0.427460 0.475952
0.442413 0.480103 0.526154
0.496887 0.532776 0.575806
0.524170 0.559082 0.600464
0.551636 0.585419 0.625000
0.579224 0.611725 0.649414
0.634796 0.664337 0.697968
0.388855 0.427429 0.475922
0.442383 0.480072 0.526123
0.496857 0.532745 0.575806
0.551636 0.585419 0.625000
0.579224 0.611725 0.649414
0.606964 0.638031 0.673767
0.634796 0.664337 0.697968
0.662750 0.690643 0.722076
0.064972 0.085358 0.129272
0.134369 0.164276 0.213989
0.207764 0.243225 0.295074
0.284119 0.322144 0.373749
0.362366 0.401123 0.450653
0.415527 0.453735 0.501099
0.469543 0.506378 0.550995
0.524078 0.558990 0.600372
0.110718 0.137970 0.186249
0.158508 0.190613 0.241364
0.233124 0.269592 0.321564
0.310028 0.348511 0.399597
0.388916 0.427490 0.475983
0.442383 0.480072 0.526123
0.496796 0.532715 0.575775
0.551575 0.585358 0.624939
0.158478 0.190582 0.241333
0.207794 0.243256 0.295105
0.258545 0.295898 0.347809
0.336121 0.374847 0.425232
0.415588 0.453827 0.501160
0.469666 0.506439 0.551056
0.524170 0.559082 0.600464
0.579193 0.611694 0.649384
0.207764 0.243225 0.295074
0.258514 0.295868 0.347778
0.310059 0.348541 0.399628
0.362457 0.401215 0.450745
0.442444 0.480133 0.526184
0.496887 0.532776 0.575806
0.551636 0.585419 0.625000
0.606964 0.638031 0.673767
0.258484 0.295837 0.347748
0.310028 0.348511 0.399597
0.362427 0.401184 0.450714
0.415619 0.453857 0.501190
0.469757 0.506500 0.551117
0.524231 0.559143 0.600525
0.579285 0.611786 0.649475
0.634827 0.664368 0.697998
0.309998 0.348480 0.399567
0.362396 0.401154 0.450684
0.415588 0.453827 0.501160
0.469727 0.506470 0.551086
0.524231 0.559143 0.600525
0.551666 0.585449 0.625031
0.606995 0.638062 0.673798
0.662811 0.690704 0.722137
0.362366 0.401123 0.450653
0.415558 0.453766 0.501129
0.469666 0.506439 0.551056
0.524170 0.559082 0.600464
0.579285 0.611786 0.649475
0.606995 0.638062 0.673798
0.634827 0.664368 0.697998
0.690887 0.717010 0.746185
0.415527 0.453735 0.501099
0.469604 0.506409 0.551025
0.524139 0.559052 0.600433
0.579224 0.611725 0.649414
0.634827 0.664368 0.697998
0.662811 0.690704 0.722137
0.690887 0.717010 0.746185
0.719116 0.743347 0.770172
0.087524 0.111633 0.158020
0.158478 0.190582 0.241333
0.233124 0.269562 0.321533
0.309998 0.348480 0.399567
0.388855 0.427429 0.475922
0.469543 0.506378 0.550995
0.524078 0.558990 0.600372
0.579102 0.611603 0.649323
0.134369 0.164276 0.213989
0.182983 0.216949 0.268402
0.258514 0.295868 0.347778
0.336090 0.374817 0.425201
0.415558 0.453766 0.501129
0.496796 0.532715 0.575775
0.551575 0.585358 0.624939
0.606903 0.637970 0.673706
0.182953 0.216919 0.268372
0.233124 0.269592 0.321564
0.284180 0.322205 0.373810
0.362427 0.401184 0.450714
0.442413 0.480103 0.526154
0.524170 0.559082 0.600464
0.579193 0.611694 0.649384
0.634766 0.664307 0.697937
0.233124 0.269562 0.321533
0.284149 0.322174 0.373779
0.336121 0.374847 0.425232
0.388947 0.427521 0.476013
0.469727 0.506470 0.551086
0.551636 0.585419 0.625000
0.606964 0.638031 0.673767
0.662781 0.690674 0.722107
0.284149 0.322174 0.373779
0.336121 0.374847 0.425232
0.388916 0.427490 0.475983
0.442444 0.480133 0.526184
0.496918 0.532806 0.575836
0.579285 0.611786 0.649475
0.634827 0.664368 0.697998
0.690887 0.717010 0.746185
0.336090 0.374817 0.425201
0.388885 0.427460 0.475952
0.442413 0.480103 0.526154
0.496887 0.532776 0.575806
0.551666 0.585449 0.625031
0.607025 0.638092 0.673798
0.662842 0.690735 0.722168
0.719147 0.743378 0.770203
0.388855 0.427429 0.475922
0.442383 0.480072 0.526123
0.496857 0.532745 0.575806
0.551636 0.585419 0.625000
0.606995 0.638062 0.673798
0.662842 0.690735 0.722168
0.690918 0.717041 0.746216
0.747711 0.769684 0.794067
0.442352 0.480042 0.526093
0.496796 0.532715 0.575775
0.551605 0.585388 0.624969
0.606964 0.638031 0.673767
0.662811 0.690704 0.722137
0.719147 0.743378 0.770203
0.747711 0.769684 0.794067
0.776123 0.795959 0.817841
0.110718 0.137970 0.186249
0.182953 0.216919 0.268372
0.258484 0.295837 0.347748
0.336060 0.374786 0.425171
0.415527 0.453735 0.501099
0.496765 0.532684 0.575745
0.579102 0.611603 0.649323
0.634705 0.664246 0.697876
0.158478 0.190582 0.241333
0.207794 0.243256 0.295105
0.284149 0.322174 0.373779
0.362396 0.401154 0.450684
0.442383 0.480072 0.526123
0.524109 0.559021 0.600403
0.606903 0.637970 0.673706
0.662689 0.690582 0.722046
0.207764 0.243225 0.295074
0.258514 0.295868 0.347778
0.310059 0.348541 0.399628
0.388916 0.427490 0.475983
0.469666 0.506439 0.551056
0.551605 0.585388 0.624969
0.634766 0.664307 0.697937
0.690826 0.716949 0.746124
0.258484 0.295837 0.347748
0.310028 0.348511 0.399597
0.362427 0.401184 0.450714
0.415588 0.453827 0.501160
0.496887 0.532776 0.575806
0.579224 0.611725 0.649414
0.662781 0.690674 0.722107
0.719055 0.743286 0.770111
0.309998 0.348480 0.399567
0.362396 0.401154 0.450684
0.415588 0.453827 0.501160
0.469727 0.506470 0.551086
0.524231 0.559143 0.600525
0.606995 0.638062 0.673798
0.690887 0.717010 0.746185
0.747681 0.769653 0.794037
0.362366 0.401123 0.450653
0.415558 0.453766 0.501129
0.469666 0.506439 0.551056
0.524170 0.559082 0.600464
0.579285 0.611786 0.649475
0.634857 0.664398 0.698029
0.719147 0.743378 0.770203
0.776123 0.795959 0.817841
0.415527 0.453735 0.501099
0.469604 0.506409 0.551025
0.524139 0.559052 0.600433
0.579224 0.611725 0.649414
0.634827 0.664368 0.697998
0.690918 0.717041 0.746216
0.747742 0.769714 0.794098
0.804718 0.822327 0.841614
0.469482 0.506348 0.550964
0.524109 0.559021 0.600403
0.579193 0.611694 0.649384
0.634796 0.664337 0.697968
0.690887 0.717010 0.746185
0.747711 0.769684 0.794067
0.804718 0.822327 0.841614
0.833313 0.848633 0.865265
0.134369 0.164276 0.213989
0.207764 0.243225 0.295074
0.284119 0.322144 0.373749
0.362335 0.401093 0.450623
0.442352 0.480042 0.526093
0.524078 0.558990 0.600372
0.606873 0.637939 0.673676
0.690765 0.716888 0.746063
0.182953 0.216919 0.268372
0.233124 0.269592 0.321564
0.310028 0.348511 0.399597
0.388885 0.427460 0.475952
0.469604 0.506409 0.551025
0.551575 0.585358 0.624939
0.634735 0.664276 0.697906
0.718994 0.743225 0.770050
0.233124 0.269562 0.321533
0.284149 0.322174 0.373779
0.336121 0.374847 0.425232
0.415558 0.453766 0.501129
0.496857 0.532745 0.575806
0.579193 0.611694 0.649384
0.662720 0.690613 0.722076
0.747620 0.769592 0.793976
0.284119 0.322144 0.373749
0.336090 0.374817 0.425201
0.388916 0.427490 0.475983
0.442444 0.480133 0.526184
0.524200 0.559113 0.600494
0.606964 0.638031 0.673767
0.690857 0.716980 0.746155
0.776062 0.795898 0.817810
0.336090 0.374817 0.425201
0.388885 0.427460 0.475952
0.442413 0.480103 0.526154
0.496887 0.532776 0.575806
0.551666 0.585449 0.625031
0.634827 0.664368 0.697998
0.719116 0.743347 0.770172
0.804626 0.822266 0.841553
0.388855 0.427429 0.475922
0.442383 0.480072 0.526123
0.496857 0.532745 0.575806
0.551636 0.585419 0.625000
0.606995 0.638062 0.673798
0.662842 0.690735 0.722168
0.747711 0.769684 0.794067
0.833282 0.848602 0.865234
0.442352 0.480042 0.526093
0.496796 0.532715 0.575775
0.551605 0.585388 0.624969
0.606964 0.638031 0.673767
0.662811 0.690704 0.722137
0.719147 0.743378 0.770203
0.776154 0.795990 0.817871
0.862091 0.874969 0.888855
0.496765 0.532684 0.575745
0.551575 0.585358 0.624939
0.606934 0.638000 0.673737
0.662750 0.690643 0.722076
0.719116 0.743347 0.770172
0.776123 0.795959 0.817841
0.833313 0.848633 0.865265
0.890930 0.901306 0.912384
