assets/lut/Negative.CUBE
#Created by: Adobe Photoshop Export Color Lookup Plugin
TITLE "Screenshot 2024-03-20 at 07.27.32.png"
#LUT size
LUT_3D_SIZE 8
#data domain
#LUT data points
DOMAIN_MIN 0.000000 0.000000 0.000000
DOMAIN_MAX 0.903226 0.903226 0.903226
1.000000 1.000000 1.000000
0.893860 0.893860 0.893860
0.816803 0.816803 0.816803
0.748291 0.748291 0.748291
0.684021 0.684021 0.684021
0.622406 0.622406 0.622406
0.562347 0.562347 0.562347
0.503326 0.503326 0.503326
0.893860 0.893860 0.893860
0.853790 0.853790 0.853790
0.781830 0.781830 0.781830
0.715759 0.715759 0.715759
0.652954 0.652954 0.652954
0.592194 0.592194 0.592194
0.532715 0.532715 0.532715
0.474579 0.474579 0.474579
0.816803 0.816803 0.816803
0.781830 0.781830 0.781830
0.748291 0.748291 0.748291
0.684052 0.684052 0.684052
0.622406 0.622406 0.622406
0.562347 0.562347 0.562347
0.503326 0.503326 0.503326
0.447052 0.447052 0.447052
0.748291 0.748291 0.748291
0.715759 0.715759 0.715759
0.684052 0.684052 0.684052
0.652954 0.652954 0.652954
0.592194 0.592194 0.592194
0.532715 0.532715 0.532715
0.474579 0.474579 0.474579
0.420746 0.420746 0.420746
0.684021 0.684021 0.684021
0.652954 0.652954 0.652954
0.622406 0.622406 0.622406
0.592194 0.592194 0.592194
0.562347 0.562347 0.562347
0.503326 0.503326 0.503326
0.447052 0.447052 0.447052
0.395477 0.395477 0.395477
0.622406 0.622406 0.622406
0.592194 0.592194 0.592194
0.562347 0.562347 0.562347
0.532715 0.532715 0.532715
0.503326 0.503326 0.503326
0.474548 0.474548 0.474548
0.420746 0.420746 0.420746
0.371246 0.371246 0.371246
0.562347 0.562347 0.562347
0.532715 0.532715 0.532715
0.503326 0.503326 0.503326
0.474579 0.474579 0.474579
0.447052 0.447052 0.447052
0.420746 0.420746 0.420746
0.395477 0.395477 0.395477
0.347870 0.347870 0.347870
0.503326 0.503326 0.503326
0.474579 0.474579 0.474579
0.447052 0.447052 0.447052
0.420746 0.420746 0.420746
0.395477 0.395477 0.395477
0.371246 0.371246 0.371246
0.347870 0.347870 0.347870
0.324951 0.324951 0.324951
0.939575 0.939575 0.939575
0.816803 0.816803 0.816803
0.748291 0.748291 0.748291
0.684052 0.684052 0.684052
0.622406 0.622406 0.622406
0.562347 0.562347 0.562347
0.503326 0.503326 0.503326
0.447052 0.447052 0.447052
0.853790 0.853790 0.853790
0.781799 0.781799 0.781799
0.715698 0.715698 0.715698
0.652924 0.652924 0.652924
0.592133 0.592133 0.592133
0.532684 0.532684 0.532684
0.474548 0.474548 0.474548
0.420715 0.420715 0.420715
0.781830 0.781830 0.781830
0.715698 0.715698 0.715698
0.684021 0.684021 0.684021
0.622345 0.622345 0.622345
0.562317 0.562317 0.562317
0.503265 0.503265 0.503265
0.447021 0.447021 0.447021
0.395447 0.395447 0.395447
0.715759 0.715759 0.715759
0.652924 0.652924 0.652924
0.622345 0.622345 0.622345
0.592194 0.592194 0.592194
0.532684 0.532684 0.532684
0.474548 0.474548 0.474548
0.420715 0.420715 0.420715
0.371216 0.371216 0.371216
0.652954 0.652954 0.652954
0.592133 0.592133 0.592133
0.562317 0.562317 0.562317
0.532684 0.532684 0.532684
0.503265 0.503265 0.503265
0.447021 0.447021 0.447021
0.395447 0.395447 0.395447
0.347809 0.347809 0.347809
0.592194 0.592194 0.592194
0.532684 0.532684 0.532684
0.503265 0.503265 0.503265
0.474548 0.474548 0.474548
0.447021 0.447021 0.447021
0.420715 0.420715 0.420715
0.371216 0.371216 0.371216
0.324921 0.324921 0.324921
0.532715 0.532715 0.532715
0.474548 0.474548 0.474548
0.447021 0.447021 0.447021
0.420715 0.420715 0.420715
0.395447 0.395447 0.395447
0.371216 0.371216 0.371216
0.347809 0.347809 0.347809
0.302551 0.302551 0.302551
0.474579 0.474579 0.474579
0.420715 0.420715 0.420715
0.395447 0.395447 0.395447
0.371216 0.371216 0.371216
0.347809 0.347809 0.347809
0.324921 0.324921 0.324921
0.302551 0.302551 0.302551
0.280640 0.280640 0.280640
0.893860 0.893860 0.893860
0.781830 0.781830 0.781830
0.684052 0.684052 0.684052
0.622406 0.622406 0.622406
0.562347 0.562347 0.562347
0.503326 0.503326 0.503326
0.447052 0.447052 0.447052
0.395508 0.395508 0.395508
0.816803 0.816803 0.816803
0.748260 0.748260 0.748260
0.652924 0.652924 0.652924
0.592194 0.592194 0.592194
0.532684 0.532684 0.532684
0.474548 0.474548 0.474548
0.420715 0.420715 0.420715
0.371216 0.371216 0.371216
0.748291 0.748291 0.748291
0.684021 0.684021 0.684021
0.622314 0.622314 0.622314
0.562256 0.562256 0.562256
0.503235 0.503235 0.503235
0.446991 0.446991 0.446991
0.395416 0.395416 0.395416
0.347809 0.347809 0.347809
0.684052 0.684052 0.684052
0.622345 0.622345 0.622345
0.562256 0.562256 0.562256
0.532684 0.532684 0.532684
0.474518 0.474518 0.474518
0.420685 0.420685 0.420685
0.371185 0.371185 0.371185
0.324921 0.324921 0.324921
0.622406 0.622406 0.622406
0.562317 0.562317 0.562317
0.503235 0.503235 0.503235
0.474518 0.474518 0.474518
0.446991 0.446991 0.446991
0.395416 0.395416 0.395416
0.347778 0.347778 0.347778
0.302521 0.302521 0.302521
0.562347 0.562347 0.562347
0.503265 0.503265 0.503265
0.446991 0.446991 0.446991
0.420685 0.420685 0.420685
0.395416 0.395416 0.395416
0.371185 0.371185 0.371185
0.324921 0.324921 0.324921
0.280609 0.280609 0.280609
0.503326 0.503326 0.503326
0.447021 0.447021 0.447021
0.395416 0.395416 0.395416
0.371185 0.371185 0.371185
0.347778 0.347778 0.347778
0.324921 0.324921 0.324921
0.302521 0.302521 0.302521
0.259186 0.259186 0.259186
0.447052 0.447052 0.447052
0.395447 0.395447 0.395447
0.347809 0.347809 0.347809
0.324921 0.324921 0.324921
0.302521 0.302521 0.302521
0.280609 0.280609 0.280609
0.259186 0.259186 0.259186
0.238251 0.238251 0.238251
0.853790 0.853790 0.853790
0.748291 0.748291 0.748291
0.652954 0.652954 0.652954
0.562347 0.562347 0.562347
0.503326 0.503326 0.503326
0.447052 0.447052 0.447052
0.395508 0.395508 0.395508
0.347870 0.347870 0.347870
0.781830 0.781830 0.781830
0.715698 0.715698 0.715698
0.622345 0.622345 0.622345
0.532715 0.532715 0.532715
0.474548 0.474548 0.474548
0.420715 0.420715 0.420715
0.371216 0.371216 0.371216
0.324921 0.324921 0.324921
0.715759 0.715759 0.715759
0.652924 0.652924 0.652924
0.592133 0.592133 0.592133
0.503235 0.503235 0.503235
0.446991 0.446991 0.446991
0.395416 0.395416 0.395416
0.347809 0.347809 0.347809
0.302521 0.302521 0.302521
0.652954 0.652954 0.652954
0.592194 0.592194 0.592194
0.532684 0.532684 0.532684
0.474487 0.474487 0.474487
0.420654 0.420654 0.420654
0.371155 0.371155 0.371155
0.324890 0.324890 0.324890
0.280579 0.280579 0.280579
0.592194 0.592194 0.592194
0.532684 0.532684 0.532684
0.474518 0.474518 0.474518
0.420654 0.420654 0.420654
0.395386 0.395386 0.395386
0.347748 0.347748 0.347748
0.302490 0.302490 0.302490
0.259155 0.259155 0.259155
0.532715 0.532715 0.532715
0.474548 0.474548 0.474548
0.420685 0.420685 0.420685
0.371155 0.371155 0.371155
0.347748 0.347748 0.347748
0.324890 0.324890 0.324890
0.280579 0.280579 0.280579
0.238220 0.238220 0.238220
0.474579 0.474579 0.474579
0.420715 0.420715 0.420715
0.371185 0.371185 0.371185
0.324890 0.324890 0.324890
0.302490 0.302490 0.302490
0.280579 0.280579 0.280579
0.259155 0.259155 0.259155
0.217804 0.217804 0.217804
0.420746 0.420746 0.420746
0.371216 0.371216 0.371216
0.324921 0.324921 0.324921
0.280579 0.280579 0.280579
0.259155 0.259155 0.259155
0.238220 0.238220 0.238220
0.217804 0.217804 0.217804
0.197845 0.197845 0.197845
0.816803 0.816803 0.816803
0.715759 0.715759 0.715759
0.622406 0.622406 0.622406
0.532745 0.532745 0.532745
0.447052 0.447052 0.447052
0.395477 0.395477 0.395477
0.347839 0.347839 0.347839
0.302582 0.302582 0.302582
0.748260 0.748260 0.748260
0.684021 0.684021 0.684021
0.592133 0.592133 0.592133
0.503265 0.503265 0.503265
0.420685 0.420685 0.420685
0.371216 0.371216 0.371216
0.324921 0.324921 0.324921
0.280640 0.280640 0.280640
0.684052 0.684052 0.684052
0.622345 0.622345 0.622345
0.562256 0.562256 0.562256
0.474518 0.474518 0.474518
0.395416 0.395416 0.395416
0.347778 0.347778 0.347778
0.302490 0.302490 0.302490
0.259186 0.259186 0.259186
0.622406 0.622406 0.622406
0.562317 0.562317 0.562317
0.503235 0.503235 0.503235
0.446960 0.446960 0.446960
0.371155 0.371155 0.371155
0.324890 0.324890 0.324890
0.280579 0.280579 0.280579
0.238220 0.238220 0.238220
0.562347 0.562347 0.562347
0.503265 0.503265 0.503265
0.446991 0.446991 0.446991
0.395386 0.395386 0.395386
0.347717 0.347717 0.347717
0.302460 0.302460 0.302460
0.259125 0.259125 0.259125
0.217773 0.217773 0.217773
0.503326 0.503326 0.503326
0.447021 0.447021 0.447021
0.395416 0.395416 0.395416
0.347748 0.347748 0.347748
0.302460 0.302460 0.302460
0.280548 0.280548 0.280548
0.238220 0.238220 0.238220
0.197815 0.197815 0.197815
0.447052 0.447052 0.447052
0.395447 0.395447 0.395447
0.347778 0.347778 0.347778
0.302490 0.302490 0.302490
0.259125 0.259125 0.259125
0.238220 0.238220 0.238220
0.217773 0.217773 0.217773
0.178375 0.178375 0.178375
0.395477 0.395477 0.395477
0.347809 0.347809 0.347809
0.302521 0.302521 0.302521
0.259155 0.259155 0.259155
0.217773 0.217773 0.217773
0.197815 0.197815 0.197815
0.178375 0.178375 0.178375
0.159393 0.159393 0.159393
0.781830 0.781830 0.781830
0.684052 0.684052 0.684052
0.592194 0.592194 0.592194
0.503326 0.503326 0.503326
0.420746 0.420746 0.420746
0.347839 0.347839 0.347839
0.302582 0.302582 0.302582
0.259247 0.259247 0.259247
0.715759 0.715759 0.715759
0.652924 0.652924 0.652924
0.562317 0.562317 0.562317
0.474548 0.474548 0.474548
0.395447 0.395447 0.395447
0.324921 0.324921 0.324921
0.280640 0.280640 0.280640
0.238281 0.238281 0.238281
0.652954 0.652954 0.652954
0.592133 0.592133 0.592133
0.532684 0.532684 0.532684
0.446991 0.446991 0.446991
0.371185 0.371185 0.371185
0.302490 0.302490 0.302490
0.259186 0.259186 0.259186
0.217834 0.217834 0.217834
0.592194 0.592194 0.592194
0.532715 0.532715 0.532715
0.474518 0.474518 0.474518
0.420654 0.420654 0.420654
0.347748 0.347748 0.347748
0.280579 0.280579 0.280579
0.238220 0.238220 0.238220
0.197845 0.197845 0.197845
0.532715 0.532715 0.532715
0.474518 0.474518 0.474518
0.420685 0.420685 0.420685
0.371155 0.371155 0.371155
0.324860 0.324860 0.324860
0.259125 0.259125 0.259125
0.217773 0.217773 0.217773
0.178375 0.178375 0.178375
0.474548 0.474548 0.474548
0.420715 0.420715 0.420715
0.371185 0.371185 0.371185
0.324890 0.324890 0.324890
0.280548 0.280548 0.280548
0.238190 0.238190 0.238190
0.197784 0.197784 0.197784
0.159363 0.159363 0.159363
0.420746 0.420746 0.420746
0.371216 0.371216 0.371216
0.324921 0.324921 0.324921
0.280579 0.280579 0.280579
0.238220 0.238220 0.238220
0.197784 0.197784 0.197784
0.178345 0.178345 0.178345
0.140900 0.140900 0.140900
0.371246 0.371246 0.371246
0.324921 0.324921 0.324921
0.280609 0.280609 0.280609
0.238220 0.238220 0.238220
0.197815 0.197815 0.197815
0.159363 0.159363 0.159363
0.140900 0.140900 0.140900
0.122894 0.122894 0.122894
0.748260 0.748260 0.748260
0.652954 0.652954 0.652954
0.562347 0.562347 0.562347
0.474579 0.474579 0.474579
0.395477 0.395477 0.395477
0.324951 0.324951 0.324951
0.259247 0.259247 0.259247
0.217865 0.217865 0.217865
0.684052 0.684052 0.684052
0.622345 0.622345 0.622345
0.532715 0.532715 0.532715
0.447021 0.447021 0.447021
0.371216 0.371216 0.371216
0.302551 0.302551 0.302551
0.238281 0.238281 0.238281
0.197906 0.197906 0.197906
0.622406 0.622406 0.622406
0.562317 0.562317 0.562317
0.503235 0.503235 0.503235
0.420685 0.420685 0.420685
0.347778 0.347778 0.347778
0.280609 0.280609 0.280609
0.217834 0.217834 0.217834
0.178436 0.178436 0.178436
0.562347 0.562347 0.562347
0.503265 0.503265 0.503265
0.446991 0.446991 0.446991
0.395416 0.395416 0.395416
0.324890 0.324890 0.324890
0.259155 0.259155 0.259155
0.197845 0.197845 0.197845
0.159424 0.159424 0.159424
0.503326 0.503326 0.503326
0.447021 0.447021 0.447021
0.395416 0.395416 0.395416
0.347748 0.347748 0.347748
0.302460 0.302460 0.302460
0.238220 0.238220 0.238220
0.178375 0.178375 0.178375
0.140930 0.140930 0.140930
0.447052 0.447052 0.447052
0.395447 0.395447 0.395447
0.347778 0.347778 0.347778
0.302490 0.302490 0.302490
0.259125 0.259125 0.259125
0.217773 0.217773 0.217773
0.159363 0.159363 0.159363
0.122894 0.122894 0.122894
0.395477 0.395477 0.395477
0.347809 0.347809 0.347809
0.302521 0.302521 0.302521
0.259155 0.259155 0.259155
0.217773 0.217773 0.217773
0.178345 0.178345 0.178345
0.140869 0.140869 0.140869
0.105377 0.105377 0.105377
0.347870 0.347870 0.347870
0.302551 0.302551 0.302551
0.259186 0.259186 0.259186
0.217804 0.217804 0.217804
0.178375 0.178375 0.178375
0.140900 0.140900 0.140900
0.105377 0.105377 0.105377
0.088348 0.088348 0.088348
0.715759 0.715759 0.715759
0.622406 0.622406 0.622406
0.532745 0.532745 0.532745
0.447083 0.447083 0.447083
0.371246 0.371246 0.371246
0.302582 0.302582 0.302582
0.238312 0.238312 0.238312
0.178467 0.178467 0.178467
0.652954 0.652954 0.652954
0.592133 0.592133 0.592133
0.503265 0.503265 0.503265
0.420715 0.420715 0.420715
0.347809 0.347809 0.347809
0.280640 0.280640 0.280640
0.217865 0.217865 0.217865
0.159485 0.159485 0.159485
0.592194 0.592194 0.592194
0.532715 0.532715 0.532715
0.474518 0.474518 0.474518
0.395447 0.395447 0.395447
0.324921 0.324921 0.324921
0.259186 0.259186 0.259186
0.197876 0.197876 0.197876
0.140961 0.140961 0.140961
0.532745 0.532745 0.532745
0.474548 0.474548 0.474548
0.420685 0.420685 0.420685
0.371155 0.371155 0.371155
0.302460 0.302460 0.302460
0.238220 0.238220 0.238220
0.178406 0.178406 0.178406
0.122955 0.122955 0.122955
0.474548 0.474548 0.474548
0.420715 0.420715 0.420715
0.371185 0.371185 0.371185
0.324890 0.324890 0.324890
0.280548 0.280548 0.280548
0.217773 0.217773 0.217773
0.159393 0.159393 0.159393
0.105408 0.105408 0.105408
0.420746 0.420746 0.420746
0.371216 0.371216 0.371216
0.324921 0.324921 0.324921
0.280579 0.280579 0.280579
0.238220 0.238220 0.238220
0.197784 0.197784 0.197784
0.140900 0.140900 0.140900
0.088379 0.088379 0.088379
0.371246 0.371246 0.371246
0.324921 0.324921 0.324921
0.280609 0.280609 0.280609
0.238220 0.238220 0.238220
0.197815 0.197815 0.197815
0.159363 0.159363 0.159363
0.122894 0.122894 0.122894
0.071838 0.071838 0.071838
0.324951 0.324951 0.324951
0.280640 0.280640 0.280640
0.238251 0.238251 0.238251
0.197845 0.197845 0.197845
0.159393 0.159393 0.159393
0.122894 0.122894 0.122894
0.088348 0.088348 0.088348
0.055786 0.055786 0.055786
