assets/lut/Negative.CUBE
#Created by: Adobe Photoshop Export Color Lookup Plugin
TITLE "Screenshot 2024-03-20 at 07.27.32.png"
#LUT size
LUT_3D_SIZE 32
#data domain
DOMAIN_MIN 0.0 0.0 0.0
DOMAIN_MAX 1.0 1.0 1.0
#LUT data points
1.000000 1.000000 1.000000
0.966461 0.966461 0.966461
0.939575 0.939575 0.939575
0.915771 0.915771 0.915771
0.893860 0.893860 0.893860
0.873383 0.873383 0.873383
0.853790 0.853790 0.853790
0.834991 0.834991 0.834991
0.816803 0.816803 0.816803
0.799133 0.799133 0.799133
0.781830 0.781830 0.781830
0.764893 0.764893 0.764893
0.748291 0.748291 0.748291
0.731903 0.731903 0.731903
0.715759 0.715759 0.715759
0.699829 0.699829 0.699829
0.684021 0.684021 0.684021
0.668457 0.668457 0.668457
0.652954 0.652954 0.652954
0.637604 0.637604 0.637604
0.622406 0.622406 0.622406
0.607239 0.607239 0.607239
0.592194 0.592194 0.592194
0.577240 0.577240 0.577240
0.562347 0.562347 0.562347
0.547485 0.547485 0.547485
0.532715 0.532715 0.532715
0.518005 0.518005 0.518005
0.503326 0.503326 0.503326
0.488770 0.488770 0.488770
0.474579 0.474579 0.474579
0.460663 0.460663 0.460663
0.966461 0.966461 0.966461
0.952515 0.952515 0.952515
0.927338 0.927338 0.927338
0.904663 0.904663 0.904663
0.883484 0.883484 0.883484
0.863464 0.863464 0.863464
0.844299 0.844299 0.844299
0.825836 0.825836 0.825836
0.807892 0.807892 0.807892
0.790405 0.790405 0.790405
0.773346 0.773346 0.773346
0.756561 0.756561 0.756561
0.740051 0.740051 0.740051
0.723846 0.723846 0.723846
0.707794 0.707794 0.707794
0.691925 0.691925 0.691925
0.676208 0.676208 0.676208
0.660675 0.660675 0.660675
0.645294 0.645294 0.645294
0.629974 0.629974 0.629974
0.614807 0.614807 0.614807
0.599731 0.599731 0.599731
0.584686 0.584686 0.584686
0.569763 0.569763 0.569763
0.554932 0.554932 0.554932
0.540131 0.540131 0.540131
0.525360 0.525360 0.525360
0.510651 0.510651 0.510651
0.496033 0.496033 0.496033
0.481628 0.481628 0.481628
0.467560 0.467560 0.467560
0.453857 0.453857 0.453857
0.939575 0.939575 0.939575
0.927338 0.927338 0.927338
0.915771 0.915771 0.915771
0.893860 0.893860 0.893860
0.873383 0.873383 0.873383
0.853790 0.853790 0.853790
0.834991 0.834991 0.834991
0.816803 0.816803 0.816803
0.799133 0.799133 0.799133
0.781830 0.781830 0.781830
0.764893 0.764893 0.764893
0.748291 0.748291 0.748291
0.731903 0.731903 0.731903
0.715759 0.715759 0.715759
0.699829 0.699829 0.699829
0.684052 0.684052 0.684052
0.668457 0.668457 0.668457
0.652954 0.652954 0.652954
0.637604 0.637604 0.637604
0.622406 0.622406 0.622406
0.607239 0.607239 0.607239
0.592194 0.592194 0.592194
0.577240 0.577240 0.577240
0.562347 0.562347 0.562347
0.547485 0.547485 0.547485
0.532715 0.532715 0.532715
0.518005 0.518005 0.518005
0.503326 0.503326 0.503326
0.488770 0.488770 0.488770
0.474579 0.474579 0.474579
0.460663 0.460663 0.460663
0.447052 0.447052 0.447052
0.915771 0.915771 0.915771
0.904663 0.904663 0.904663
0.893860 0.893860 0.893860
0.883484 0.883484 0.883484
0.863464 0.863464 0.863464
0.844299 0.844299 0.844299
0.825836 0.825836 0.825836
0.807892 0.807892 0.807892
0.790405 0.790405 0.790405
0.773346 0.773346 0.773346
0.756561 0.756561 0.756561
0.740051 0.740051 0.740051
0.723846 0.723846 0.723846
0.707794 0.707794 0.707794
0.691925 0.691925 0.691925
0.676270 0.676270 0.676270
0.660675 0.660675 0.660675
0.645294 0.645294 0.645294
0.629974 0.629974 0.629974
0.614807 0.614807 0.614807
0.599731 0.599731 0.599731
0.584686 0.584686 0.584686
0.569763 0.569763 0.569763
0.554932 0.554932 0.554932
0.540131 0.540131 0.540131
0.525360 0.525360 0.525360
0.510651 0.510651 0.510651
0.496033 0.496033 0.496033
0.481628 0.481628 0.481628
0.467560 0.467560 0.467560
0.453857 0.453857 0.453857
0.440399 0.440399 0.440399
0.893860 0.893860 0.893860
0.883484 0.883484 0.883484
0.873383 0.873383 0.873383
0.863464 0.863464 0.863464
0.853790 0.853790 0.853790
0.834991 0.834991 0.834991
0.816803 0.816803 0.816803
0.799133 0.799133 0.799133
0.781830 0.781830 0.781830
0.764893 0.764893 0.764893
0.748291 0.748291 0.748291
0.731903 0.731903 0.731903
0.715759 0.715759 0.715759
0.699829 0.699829 0.699829
0.684052 0.684052 0.684052
0.668457 0.668457 0.668457
0.652954 0.652954 0.652954
0.637604 0.637604 0.637604
0.622406 0.622406 0.622406
0.607239 0.607239 0.607239
0.592194 0.592194 0.592194
0.577240 0.577240 0.577240
0.562347 0.562347 0.562347
0.547485 0.547485 0.547485
0.532715 0.532715 0.532715
0.518005 0.518005 0.518005
0.503326 0.503326 0.503326
0.488770 0.488770 0.488770
0.474579 0.474579 0.474579
0.460663 0.460663 0.460663
0.447052 0.447052 0.447052
0.433777 0.433777 0.433777
0.873383 0.873383 0.873383
0.863464 0.863464 0.863464
0.853790 0.853790 0.853790
0.844299 0.844299 0.844299
0.834991 0.834991 0.834991
0.825836 0.825836 0.825836
0.807892 0.807892 0.807892
0.790405 0.790405 0.790405
0.773346 0.773346 0.773346
0.756561 0.756561 0.756561
0.740051 0.740051 0.740051
0.723846 0.723846 0.723846
0.707794 0.707794 0.707794
0.691925 0.691925 0.691925
0.676270 0.676270 0.676270
0.660706 0.660706 0.660706
0.645294 0.645294 0.645294
0.629974 0.629974 0.629974
0.614807 0.614807 0.614807
0.599731 0.599731 0.599731
0.584686 0.584686 0.584686
0.569763 0.569763 0.569763
0.554932 0.554932 0.554932
0.540131 0.540131 0.540131
0.525360 0.525360 0.525360
0.510651 0.510651 0.510651
0.496033 0.496033 0.496033
0.481628 0.481628 0.481628
0.467560 0.467560 0.467560
0.453857 0.453857 0.453857
0.440399 0.440399 0.440399
0.427216 0.427216 0.427216
0.853790 0.853790 0.853790
0.844299 0.844299 0.844299
0.834991 0.834991 0.834991
0.825836 0.825836 0.825836
0.816803 0.816803 0.816803
0.807892 0.807892 0.807892
0.799133 0.799133 0.799133
0.781830 0.781830 0.781830
0.764893 0.764893 0.764893
0.748291 0.748291 0.748291
0.731903 0.731903 0.731903
0.715759 0.715759 0.715759
0.699829 0.699829 0.699829
0.684052 0.684052 0.684052
0.668457 0.668457 0.668457
0.652954 0.652954 0.652954
0.637604 0.637604 0.637604
0.622406 0.622406 0.622406
0.607239 0.607239 0.607239
0.592194 0.592194 0.592194
0.577240 0.577240 0.577240
0.562347 0.562347 0.562347
0.547485 0.547485 0.547485
0.532715 0.532715 0.532715
0.518005 0.518005 0.518005
0.503326 0.503326 0.503326
0.488770 0.488770 0.488770
0.474579 0.474579 0.474579
0.460663 0.460663 0.460663
0.447052 0.447052 0.447052
0.433777 0.433777 0.433777
0.420746 0.420746 0.420746
0.834991 0.834991 0.834991
0.825836 0.825836 0.825836
0.816803 0.816803 0.816803
0.807892 0.807892 0.807892
0.799133 0.799133 0.799133
0.790405 0.790405 0.790405
0.781830 0.781830 0.781830
0.773346 0.773346 0.773346
0.756561 0.756561 0.756561
0.740051 0.740051 0.740051
0.723846 0.723846 0.723846
0.707794 0.707794 0.707794
0.691925 0.691925 0.691925
0.676270 0.676270 0.676270
0.660706 0.660706 0.660706
0.645294 0.645294 0.645294
0.629974 0.629974 0.629974
0.614807 0.614807 0.614807
0.599731 0.599731 0.599731
0.584686 0.584686 0.584686
0.569763 0.569763 0.569763
0.554932 0.554932 0.554932
0.540131 0.540131 0.540131
0.525360 0.525360 0.525360
0.510651 0.510651 0.510651
0.496033 0.496033 0.496033
0.481628 0.481628 0.481628
0.467560 0.467560 0.467560
0.453857 0.453857 0.453857
0.440399 0.440399 0.440399
0.427216 0.427216 0.427216
0.414337 0.414337 0.414337
0.816803 0.816803 0.816803
0.807892 0.807892 0.807892
0.799133 0.799133 0.799133
0.790405 0.790405 0.790405
0.781830 0.781830 0.781830
0.773346 0.773346 0.773346
0.764893 0.764893 0.764893
0.756561 0.756561 0.756561
0.748291 0.748291 0.748291
0.731903 0.731903 0.731903
0.715759 0.715759 0.715759
0.699829 0.699829 0.699829
0.684052 0.684052 0.684052
0.668457 0.668457 0.668457
0.652954 0.652954 0.652954
0.637634 0.637634 0.637634
0.622406 0.622406 0.622406
0.607239 0.607239 0.607239
0.592194 0.592194 0.592194
0.577240 0.577240 0.577240
0.562347 0.562347 0.562347
0.547485 0.547485 0.547485
0.532715 0.532715 0.532715
0.518005 0.518005 0.518005
0.503326 0.503326 0.503326
0.488770 0.488770 0.488770
0.474579 0.474579 0.474579
0.460663 0.460663 0.460663
0.447052 0.447052 0.447052
0.433777 0.433777 0.433777
0.420746 0.420746 0.420746
0.407990 0.407990 0.407990
0.799133 0.799133 0.799133
0.790405 0.790405 0.790405
0.781830 0.781830 0.781830
0.773346 0.773346 0.773346
0.764893 0.764893 0.764893
0.756561 0.756561 0.756561
0.748291 0.748291 0.748291
0.740051 0.740051 0.740051
0.731903 0.731903 0.731903
0.723846 0.723846 0.723846
0.707794 0.707794 0.707794
0.691925 0.691925 0.691925
0.676270 0.676270 0.676270
0.660706 0.660706 0.660706
0.645294 0.645294 0.645294
0.629974 0.629974 0.629974
0.614807 0.614807 0.614807
0.599731 0.599731 0.599731
0.584686 0.584686 0.584686
0.569763 0.569763 0.569763
0.554932 0.554932 0.554932
0.540131 0.540131 0.540131
0.525360 0.525360 0.525360
0.510651 0.510651 0.510651
0.496033 0.496033 0.496033
0.481628 0.481628 0.481628
0.467560 0.467560 0.467560
0.453857 0.453857 0.453857
0.440399 0.440399 0.440399
0.427216 0.427216 0.427216
0.414337 0.414337 0.414337
0.401733 0.401733 0.401733
0.781830 0.781830 0.781830
0.773346 0.773346 0.773346
0.764893 0.764893 0.764893
0.756561 0.756561 0.756561
0.748291 0.748291 0.748291
0.740051 0.740051 0.740051
0.731903 0.731903 0.731903
0.723846 0.723846 0.723846
0.715759 0.715759 0.715759
0.707794 0.707794 0.707794
0.699829 0.699829 0.699829
0.684052 0.684052 0.684052
0.668457 0.668457 0.668457
0.652954 0.652954 0.652954
0.637634 0.637634 0.637634
0.622406 0.622406 0.622406
0.607239 0.607239 0.607239
0.592194 0.592194 0.592194
0.577240 0.577240 0.577240
0.562347 0.562347 0.562347
0.547485 0.547485 0.547485
0.532715 0.532715 0.532715
0.518005 0.518005 0.518005
0.503326 0.503326 0.503326
0.488770 0.488770 0.488770
0.474579 0.474579 0.474579
0.460663 0.460663 0.460663
0.447052 0.447052 0.447052
0.433777 0.433777 0.433777
0.420746 0.420746 0.420746
0.407990 0.407990 0.407990
0.395508 0.395508 0.395508
0.764893 0.764893 0.764893
0.756561 0.756561 0.756561
0.748291 0.748291 0.748291
0.740051 0.740051 0.740051
0.731903 0.731903 0.731903
0.723846 0.723846 0.723846
0.715759 0.715759 0.715759
0.707794 0.707794 0.707794
0.699829 0.699829 0.699829
0.691925 0.691925 0.691925
0.684052 0.684052 0.684052
0.676270 0.676270 0.676270
0.660706 0.660706 0.660706
0.645294 0.645294 0.645294
0.629974 0.629974 0.629974
0.614838 0.614838 0.614838
0.599731 0.599731 0.599731
0.584686 0.584686 0.584686
0.569763 0.569763 0.569763
0.554932 0.554932 0.554932
0.540131 0.540131 0.540131
0.525360 0.525360 0.525360
0.510651 0.510651 0.510651
0.496033 0.496033 0.496033
0.481628 0.481628 0.481628
0.467560 0.467560 0.467560
0.453857 0.453857 0.453857
0.440399 0.440399 0.440399
0.427216 0.427216 0.427216
0.414337 0.414337 0.414337
0.401733 0.401733 0.401733
0.389343 0.389343 0.389343
0.748291 0.748291 0.748291
0.740051 0.740051 0.740051
0.731903 0.731903 0.731903
0.723846 0.723846 0.723846
0.715759 0.715759 0.715759
0.707794 0.707794 0.707794
0.699829 0.699829 0.699829
0.691925 0.691925 0.691925
0.684052 0.684052 0.684052
0.676270 0.676270 0.676270
0.668457 0.668457 0.668457
0.660706 0.660706 0.660706
0.652954 0.652954 0.652954
0.637634 0.637634 0.637634
0.622406 0.622406 0.622406
0.607239 0.607239 0.607239
0.592194 0.592194 0.592194
0.577240 0.577240 0.577240
0.562347 0.562347 0.562347
0.547485 0.547485 0.547485
0.532715 0.532715 0.532715
0.518005 0.518005 0.518005
0.503326 0.503326 0.503326
0.488770 0.488770 0.488770
0.474579 0.474579 0.474579
0.460663 0.460663 0.460663
0.447052 0.447052 0.447052
0.433777 0.433777 0.433777
0.420746 0.420746 0.420746
0.407990 0.407990 0.407990
0.395508 0.395508 0.395508
0.383270 0.383270 0.383270
0.731903 0.731903 0.731903
0.723846 0.723846 0.723846
0.715759 0.715759 0.715759
0.707794 0.707794 0.707794
0.699829 0.699829 0.699829
0.691925 0.691925 0.691925
0.684052 0.684052 0.684052
0.676270 0.676270 0.676270
0.668457 0.668457 0.668457
0.660706 0.660706 0.660706
0.652954 0.652954 0.652954
0.645294 0.645294 0.645294
0.637634 0.637634 0.637634
0.629974 0.629974 0.629974
0.614838 0.614838 0.614838
0.599731 0.599731 0.599731
0.584686 0.584686 0.584686
0.569763 0.569763 0.569763
0.554932 0.554932 0.554932
0.540131 0.540131 0.540131
0.525360 0.525360 0.525360
0.510651 0.510651 0.510651
0.496033 0.496033 0.496033
0.481628 0.481628 0.481628
0.467560 0.467560 0.467560
0.453857 0.453857 0.453857
0.440399 0.440399 0.440399
0.427216 0.427216 0.427216
0.414337 0.414337 0.414337
0.401733 0.401733 0.401733
0.389343 0.389343 0.389343
0.377228 0.377228 0.377228
0.715759 0.715759 0.715759
0.707794 0.707794 0.707794
0.699829 0.699829 0.699829
0.691925 0.691925 0.691925
0.684052 0.684052 0.684052
0.676270 0.676270 0.676270
0.668457 0.668457 0.668457
0.660706 0.660706 0.660706
0.652954 0.652954 0.652954
0.645294 0.645294 0.645294
0.637634 0.637634 0.637634
0.629974 0.629974 0.629974
0.622406 0.622406 0.622406
0.614838 0.614838 0.614838
0.607239 0.607239 0.607239
0.592224 0.592224 0.592224
0.577240 0.577240 0.577240
0.562347 0.562347 0.562347
0.547485 0.547485 0.547485
0.532715 0.532715 0.532715
0.518005 0.518005 0.518005
0.503326 0.503326 0.503326
0.488770 0.488770 0.488770
0.474579 0.474579 0.474579
0.460663 0.460663 0.460663
0.447052 0.447052 0.447052
0.433777 0.433777 0.433777
0.420746 0.420746 0.420746
0.407990 0.407990 0.407990
0.395508 0.395508 0.395508
0.383270 0.383270 0.383270
0.371246 0.371246 0.371246
0.699829 0.699829 0.699829
0.691925 0.691925 0.691925
0.684052 0.684052 0.684052
0.676270 0.676270 0.676270
0.668457 0.668457 0.668457
0.660706 0.660706 0.660706
0.652954 0.652954 0.652954
0.645294 0.645294 0.645294
0.637634 0.637634 0.637634
0.629974 0.629974 0.629974
0.622406 0.622406 0.622406
0.614838 0.614838 0.614838
0.607239 0.607239 0.607239
0.599731 0.599731 0.599731
0.592224 0.592224 0.592224
0.584686 0.584686 0.584686
0.569763 0.569763 0.569763
0.554932 0.554932 0.554932
0.540131 0.540131 0.540131
0.525360 0.525360 0.525360
0.510651 0.510651 0.510651
0.496033 0.496033 0.496033
0.481628 0.481628 0.481628
0.467560 0.467560 0.467560
0.453857 0.453857 0.453857
0.440399 0.440399 0.440399
0.427216 0.427216 0.427216
0.414337 0.414337 0.414337
0.401733 0.401733 0.401733
0.389343 0.389343 0.389343
0.377228 0.377228 0.377228
0.365326 0.365326 0.365326
0.684021 0.684021 0.684021
0.676208 0.676208 0.676208
0.668457 0.668457 0.668457
0.660675 0.660675 0.660675
0.652954 0.652954 0.652954
0.645294 0.645294 0.645294
0.637604 0.637604 0.637604
0.629974 0.629974 0.629974
0.622406 0.622406 0.622406
0.614807 0.614807 0.614807
0.607239 0.607239 0.607239
0.599731 0.599731 0.599731
0.592194 0.592194 0.592194
0.584686 0.584686 0.584686
0.577240 0.577240 0.577240
0.569763 0.569763 0.569763
0.562347 0.562347 0.562347
0.547485 0.547485 0.547485
0.532715 0.532715 0.532715
0.518005 0.518005 0.518005
0.503326 0.503326 0.503326
0.488770 0.488770 0.488770
0.474548 0.474548 0.474548
0.460663 0.460663 0.460663
0.447052 0.447052 0.447052
0.433746 0.433746 0.433746
0.420746 0.420746 0.420746
0.407990 0.407990 0.407990
0.395477 0.395477 0.395477
0.383270 0.383270 0.383270
0.371246 0.371246 0.371246
0.359467 0.359467 0.359467
0.668457 0.668457 0.668457
0.660675 0.660675 0.660675
0.652954 0.652954 0.652954
0.645294 0.645294 0.645294
0.637604 0.637604 0.637604
0.629974 0.629974 0.629974
0.622406 0.622406 0.622406
0.614807 0.614807 0.614807
0.607239 0.607239 0.607239
0.599731 0.599731 0.599731
0.592194 0.592194 0.592194
0.584686 0.584686 0.584686
0.577240 0.577240 0.577240
0.569763 0.569763 0.569763
0.562347 0.562347 0.562347
0.554932 0.554932 0.554932
0.547485 0.547485 0.547485
0.540131 0.540131 0.540131
0.525360 0.525360 0.525360
0.510651 0.510651 0.510651
0.496033 0.496033 0.496033
0.481628 0.481628 0.481628
0.467560 0.467560 0.467560
0.453827 0.453827 0.453827
0.440399 0.440399 0.440399
0.427216 0.427216 0.427216
0.414307 0.414307 0.414307
0.401733 0.401733 0.401733
0.389343 0.389343 0.389343
0.377228 0.377228 0.377228
0.365326 0.365326 0.365326
0.353638 0.353638 0.353638
0.652954 0.652954 0.652954
0.645294 0.645294 0.645294
0.637604 0.637604 0.637604
0.629974 0.629974 0.629974
0.622406 0.622406 0.622406
0.614807 0.614807 0.614807
0.607239 0.607239 0.607239
0.599731 0.599731 0.599731
0.592194 0.592194 0.592194
0.584686 0.584686 0.584686
0.577240 0.577240 0.577240
0.569763 0.569763 0.569763
0.562347 0.562347 0.562347
0.554932 0.554932 0.554932
0.547485 0.547485 0.547485
0.540131 0.540131 0.540131
0.532715 0.532715 0.532715
0.525360 0.525360 0.525360
0.518005 0.518005 0.518005
0.503326 0.503326 0.503326
0.488770 0.488770 0.488770
0.474548 0.474548 0.474548
0.460663 0.460663 0.460663
0.447052 0.447052 0.447052
0.433746 0.433746 0.433746
0.420746 0.420746 0.420746
0.407990 0.407990 0.407990
0.395477 0.395477 0.395477
0.383270 0.383270 0.383270
0.371246 0.371246 0.371246
0.359467 0.359467 0.359467
0.347870 0.347870 0.347870
0.637604 0.637604 0.637604
0.629974 0.629974 0.629974
0.622406 0.622406 0.622406
0.614807 0.614807 0.614807
0.607239 0.607239 0.607239
0.599731 0.599731 0.599731
0.592194 0.592194 0.592194
0.584686 0.584686 0.584686
0.577240 0.577240 0.577240
0.569763 0.569763 0.569763
0.562347 0.562347 0.562347
0.554932 0.554932 0.554932
0.547485 0.547485 0.547485
0.540131 0.540131 0.540131
0.532715 0.532715 0.532715
0.525360 0.525360 0.525360
0.518005 0.518005 0.518005
0.510651 0.510651 0.510651
0.503326 0.503326 0.503326
0.496033 0.496033 0.496033
0.481628 0.481628 0.481628
0.467560 0.467560 0.467560
0.453827 0.453827 0.453827
0.440399 0.440399 0.440399
0.427216 0.427216 0.427216
0.414307 0.414307 0.414307
0.401733 0.401733 0.401733
0.389343 0.389343 0.389343
0.377228 0.377228 0.377228
0.365326 0.365326 0.365326
0.353638 0.353638 0.353638
0.342072 0.342072 0.342072
0.622406 0.622406 0.622406
0.614807 0.614807 0.614807
0.607239 0.607239 0.607239
0.599731 0.599731 0.599731
0.592194 0.592194 0.592194
0.584686 0.584686 0.584686
0.577240 0.577240 0.577240
0.569763 0.569763 0.569763
0.562347 0.562347 0.562347
0.554932 0.554932 0.554932
0.547485 0.547485 0.547485
0.540131 0.540131 0.540131
0.532715 0.532715 0.532715
0.525360 0.525360 0.525360
0.518005 0.518005 0.518005
0.510651 0.510651 0.510651
0.503326 0.503326 0.503326
0.496033 0.496033 0.496033
0.488770 0.488770 0.488770
0.481628 0.481628 0.481628
0.474548 0.474548 0.474548
0.460663 0.460663 0.460663
0.447052 0.447052 0.447052
0.433746 0.433746 0.433746
0.420746 0.420746 0.420746
0.407990 0.407990 0.407990
0.395477 0.395477 0.395477
0.383270 0.383270 0.383270
0.371246 0.371246 0.371246
0.359467 0.359467 0.359467
0.347870 0.347870 0.347870
0.336334 0.336334 0.336334
0.607239 0.607239 0.607239
0.599731 0.599731 0.599731
0.592194 0.592194 0.592194
0.584686 0.584686 0.584686
0.577240 0.577240 0.577240
0.569763 0.569763 0.569763
0.562347 0.562347 0.562347
0.554932 0.554932 0.554932
0.547485 0.547485 0.547485
0.540131 0.540131 0.540131
0.532715 0.532715 0.532715
0.525360 0.525360 0.525360
0.518005 0.518005 0.518005
0.510651 0.510651 0.510651
0.503326 0.503326 0.503326
0.496033 0.496033 0.496033
0.488770 0.488770 0.488770
0.481628 0.481628 0.481628
0.474548 0.474548 0.474548
0.467560 0.467560 0.467560
0.460663 0.460663 0.460663
0.453827 0.453827 0.453827
0.440399 0.440399 0.440399
0.427216 0.427216 0.427216
0.414307 0.414307 0.414307
0.401733 0.401733 0.401733
0.389343 0.389343 0.389343
0.377228 0.377228 0.377228
0.365326 0.365326 0.365326
0.353638 0.353638 0.353638
0.342072 0.342072 0.342072
0.330627 0.330627 0.330627
0.592194 0.592194 0.592194
0.584686 0.584686 0.584686
0.577240 0.577240 0.577240
0.569763 0.569763 0.569763
0.562347 0.562347 0.562347
0.554932 0.554932 0.554932
0.547485 0.547485 0.547485
0.540131 0.540131 0.540131
0.532715 0.532715 0.532715
0.525360 0.525360 0.525360
0.518005 0.518005 0.518005
0.510651 0.510651 0.510651
0.503326 0.503326 0.503326
0.496033 0.496033 0.496033
0.488770 0.488770 0.488770
0.481628 0.481628 0.481628
0.474548 0.474548 0.474548
0.467560 0.467560 0.467560
0.460663 0.460663 0.460663
0.453827 0.453827 0.453827
0.447052 0.447052 0.447052
0.440399 0.440399 0.440399
0.433746 0.433746 0.433746
0.420746 0.420746 0.420746
0.407990 0.407990 0.407990
0.395477 0.395477 0.395477
0.383270 0.383270 0.383270
0.371246 0.371246 0.371246
0.359467 0.359467 0.359467
0.347870 0.347870 0.347870
0.336334 0.336334 0.336334
0.324951 0.324951 0.324951
0.577240 0.577240 0.577240
0.569763 0.569763 0.569763
0.562347 0.562347 0.562347
0.554932 0.554932 0.554932
0.547485 0.547485 0.547485
0.540131 0.540131 0.540131
0.532715 0.532715 0.532715
0.525360 0.525360 0.525360
0.518005 0.518005 0.518005
0.510651 0.510651 0.510651
0.503326 0.503326 0.503326
0.496033 0.496033 0.496033
0.488770 0.488770 0.488770
0.481628 0.481628 0.481628
0.474579 0.474579 0.474579
0.467560 0.467560 0.467560
0.460663 0.460663 0.460663
0.453827 0.453827 0.453827
0.447052 0.447052 0.447052
0.440399 0.440399 0.440399
0.433746 0.433746 0.433746
0.427216 0.427216 0.427216
0.420746 0.420746 0.420746
0.414307 0.414307 0.414307
0.401733 0.401733 0.401733
0.389343 0.389343 0.389343
0.377228 0.377228 0.377228
0.365326 0.365326 0.365326
0.353638 0.353638 0.353638
0.342072 0.342072 0.342072
0.330627 0.330627 0.330627
0.319336 0.319336 0.319336
0.562347 0.562347 0.562347
0.554932 0.554932 0.554932
0.547485 0.547485 0.547485
0.540131 0.540131 0.540131
0.532715 0.532715 0.532715
0.525360 0.525360 0.525360
0.518005 0.518005 0.518005
0.510651 0.510651 0.510651
0.503326 0.503326 0.503326
0.496033 0.496033 0.496033
0.488770 0.488770 0.488770
0.481628 0.481628 0.481628
0.474579 0.474579 0.474579
0.467560 0.467560 0.467560
0.460663 0.460663 0.460663
0.453857 0.453857 0.453857
0.447052 0.447052 0.447052
0.440399 0.440399 0.440399
0.433746 0.433746 0.433746
0.427216 0.427216 0.427216
0.420746 0.420746 0.420746
0.414307 0.414307 0.414307
0.407990 0.407990 0.407990
0.401733 0.401733 0.401733
0.395477 0.395477 0.395477
0.383270 0.383270 0.383270
0.371246 0.371246 0.371246
0.359467 0.359467 0.359467
0.347870 0.347870 0.347870
0.336334 0.336334 0.336334
0.324951 0.324951 0.324951
0.313690 0.313690 0.313690
0.547485 0.547485 0.547485
0.540131 0.540131 0.540131
0.532715 0.532715 0.532715
0.525360 0.525360 0.525360
0.518005 0.518005 0.518005
0.510651 0.510651 0.510651
0.503326 0.503326 0.503326
0.496033 0.496033 0.496033
0.488770 0.488770 0.488770
0.481628 0.481628 0.481628
0.474579 0.474579 0.474579
0.467560 0.467560 0.467560
0.460663 0.460663 0.460663
0.453857 0.453857 0.453857
0.447052 0.447052 0.447052
0.440399 0.440399 0.440399
0.433746 0.433746 0.433746
0.427216 0.427216 0.427216
0.420746 0.420746 0.420746
0.414307 0.414307 0.414307
0.407990 0.407990 0.407990
0.401733 0.401733 0.401733
0.395477 0.395477 0.395477
0.389343 0.389343 0.389343
0.383270 0.383270 0.383270
0.377228 0.377228 0.377228
0.365326 0.365326 0.365326
0.353638 0.353638 0.353638
0.342072 0.342072 0.342072
0.330627 0.330627 0.330627
0.319336 0.319336 0.319336
0.308136 0.308136 0.308136
0.532715 0.532715 0.532715
0.525360 0.525360 0.525360
0.518005 0.518005 0.518005
0.510651 0.510651 0.510651
0.503326 0.503326 0.503326
0.496033 0.496033 0.496033
0.488770 0.488770 0.488770
0.481628 0.481628 0.481628
0.474579 0.474579 0.474579
0.467560 0.467560 0.467560
0.460663 0.460663 0.460663
0.453857 0.453857 0.453857
0.447052 0.447052 0.447052
0.440399 0.440399 0.440399
0.433777 0.433777 0.433777
0.427216 0.427216 0.427216
0.420746 0.420746 0.420746
0.414307 0.414307 0.414307
0.407990 0.407990 0.407990
0.401733 0.401733 0.401733
0.395477 0.395477 0.395477
0.389343 0.389343 0.389343
0.383270 0.383270 0.383270
0.377228 0.377228 0.377228
0.371246 0.371246 0.371246
0.365326 0.365326 0.365326
0.359467 0.359467 0.359467
0.347870 0.347870 0.347870
0.336334 0.336334 0.336334
0.324951 0.324951 0.324951
0.313690 0.313690 0.313690
0.302582 0.302582 0.302582
0.518005 0.518005 0.518005
0.510651 0.510651 0.510651
0.503326 0.503326 0.503326
0.496033 0.496033 0.496033
0.488770 0.488770 0.488770
0.481628 0.481628 0.481628
0.474579 0.474579 0.474579
0.467560 0.467560 0.467560
0.460663 0.460663 0.460663
0.453857 0.453857 0.453857
0.447052 0.447052 0.447052
0.440399 0.440399 0.440399
0.433777 0.433777 0.433777
0.427216 0.427216 0.427216
0.420746 0.420746 0.420746
0.414337 0.414337 0.414337
0.407990 0.407990 0.407990
