assets/lut/Negative.CUBE
#Created by: Adobe Photoshop Export Color Lookup Plugin
TITLE "Screenshot 2024-03-20 at 07.27.32.png"
#LUT size
LUT_3D_SIZE 5
#data domain
#LUT data points
DOMAIN_MIN 0.000000 0.000000 0.000000
DOMAIN_MAX 0.903226 0.903226 0.903226
1.000000 1.000000 1.000000
0.834991 0.834991 0.834991
0.715759 0.715759 0.715759
0.607239 0.607239 0.607239
0.503326 0.503326 0.503326
0.834991 0.834991 0.834991
0.773346 0.773346 0.773346
0.660706 0.660706 0.660706
0.554932 0.554932 0.554932
0.453857 0.453857 0.453857
0.715759 0.715759 0.715759
0.660706 0.660706 0.660706
0.607239 0.607239 0.607239
0.503326 0.503326 0.503326
0.407990 0.407990 0.407990
0.607239 0.607239 0.607239
0.554932 0.554932 0.554932
0.503326 0.503326 0.503326
0.453827 0.453827 0.453827
0.365326 0.365326 0.365326
0.503326 0.503326 0.503326
0.453857 0.453857 0.453857
0.407990 0.407990 0.407990
0.365326 0.365326 0.365326
0.324951 0.324951 0.324951
0.904663 0.904663 0.904663
0.715759 0.715759 0.715759
0.607239 0.607239 0.607239
0.503326 0.503326 0.503326
0.407990 0.407990 0.407990
0.773346 0.773346 0.773346
0.660614 0.660614 0.660614
0.554840 0.554840 0.554840
0.453766 0.453766 0.453766
0.365295 0.365295 0.365295
0.660706 0.660706 0.660706
0.554840 0.554840 0.554840
0.503265 0.503265 0.503265
0.407928 0.407928 0.407928
0.324921 0.324921 0.324921
0.554932 0.554932 0.554932
0.453766 0.453766 0.453766
0.407928 0.407928 0.407928
0.365295 0.365295 0.365295
0.286041 0.286041 0.286041
0.453857 0.453857 0.453857
0.365295 0.365295 0.365295
0.324921 0.324921 0.324921
0.286041 0.286041 0.286041
0.248657 0.248657 0.248657
0.834991 0.834991 0.834991
0.660706 0.660706 0.660706
0.503326 0.503326 0.503326
0.407990 0.407990 0.407990
0.324951 0.324951 0.324951
0.715759 0.715759 0.715759
0.607208 0.607208 0.607208
0.453766 0.453766 0.453766
0.365295 0.365295 0.365295
0.286041 0.286041 0.286041
0.607239 0.607239 0.607239
0.503265 0.503265 0.503265
0.407898 0.407898 0.407898
0.324890 0.324890 0.324890
0.248657 0.248657 0.248657
0.503326 0.503326 0.503326
0.407928 0.407928 0.407928
0.324890 0.324890 0.324890
0.286011 0.286011 0.286011
0.212769 0.212769 0.212769
0.407990 0.407990 0.407990
0.324921 0.324921 0.324921
0.248657 0.248657 0.248657
0.212769 0.212769 0.212769
0.178406 0.178406 0.178406
0.773285 0.773285 0.773285
0.607239 0.607239 0.607239
0.453857 0.453857 0.453857
0.324951 0.324951 0.324951
0.248718 0.248718 0.248718
0.660706 0.660706 0.660706
0.554840 0.554840 0.554840
0.407959 0.407959 0.407959
0.286041 0.286041 0.286041
0.212799 0.212799 0.212799
0.554932 0.554932 0.554932
0.453766 0.453766 0.453766
0.365234 0.365234 0.365234
0.248627 0.248627 0.248627
0.178406 0.178406 0.178406
0.453827 0.453827 0.453827
0.365295 0.365295 0.365295
0.286011 0.286011 0.286011
0.212708 0.212708 0.212708
0.145447 0.145447 0.145447
0.365326 0.365326 0.365326
0.286041 0.286041 0.286041
0.212769 0.212769 0.212769
0.145447 0.145447 0.145447
0.114105 0.114105 0.114105
0.715759 0.715759 0.715759
0.554932 0.554932 0.554932
0.407990 0.407990 0.407990
0.286072 0.286072 0.286072
0.178467 0.178467 0.178467
0.607239 0.607239 0.607239
0.503235 0.503235 0.503235
0.365295 0.365295 0.365295
0.248657 0.248657 0.248657
0.145538 0.145538 0.145538
0.503326 0.503326 0.503326
0.407959 0.407959 0.407959
0.324890 0.324890 0.324890
0.212769 0.212769 0.212769
0.114136 0.114136 0.114136
0.407990 0.407990 0.407990
0.324921 0.324921 0.324921
0.248657 0.248657 0.248657
0.178345 0.178345 0.178345
0.084198 0.084198 0.084198
0.324951 0.324951 0.324951
0.248657 0.248657 0.248657
0.178406 0.178406 0.178406
0.114105 0.114105 0.114105
0.055786 0.055786 0.055786
