assets/lut/Posterize.CUBE
#Created by: Adobe Photoshop Export Color Lookup Plugin
TITLE "Screenshot 2024-03-20 at 07.27.32.png"
#LUT size
LUT_3D_SIZE 5
#data domain
#LUT data points
DOMAIN_MIN 0.000000 0.000000 0.000000
DOMAIN_MAX 0.903226 0.903226 0.903226
0.000000 0.000000 0.000000
0.000000 0.000000 0.000000
0.333313 0.000000 0.000000
0.666656 0.000000 0.000000
1.000000 0.000000 0.000000
0.000000 0.000000 0.000000
0.000000 0.000000 0.000000
0.333313 0.000000 0.000000
0.666656 0.000000 0.000000
1.000000 0.000000 0.000000
0.000000 0.333313 0.000000
0.000000 0.333313 0.000000
0.333313 0.333313 0.000000
0.666656 0.333313 0.000000
1.000000 0.333313 0.000000
0.000000 0.666656 0.000000
0.000000 0.666656 0.000000
0.333313 0.666656 0.000000
0.666656 0.666656 0.000000
1.000000 0.666656 0.000000
0.000000 1.000000 0.000000
0.000000 1.000000 0.000000
0.333313 1.000000 0.000000
0.666656 1.000000 0.000000
1.000000 1.000000 0.000000
0.000000 0.000000 0.000000
0.000000 0.000000 0.000000
0.333313 0.000000 0.000000
0.666656 0.000000 0.000000
1.000000 0.000000 0.000000
0.000000 0.000000 0.000000
0.000000 0.000000 0.000000
0.333313 0.000000 0.000000
0.666656 0.000000 0.000000
1.000000 0.000000 0.000000
0.000000 0.333313 0.000000
0.000000 0.333313 0.000000
0.333313 0.333313 0.000000
0.666656 0.333313 0.000000
1.000000 0.333313 0.000000
0.000000 0.666656 0.000000
0.000000 0.666656 0.000000
0.333313 0.666656 0.000000
0.666656 0.666656 0.000000
1.000000 0.666656 0.000000
0.000000 1.000000 0.000000
0.000000 1.000000 0.000000
0.333313 1.000000 0.000000
0.666656 1.000000 0.000000
1.000000 1.000000 0.000000
0.000000 0.000000 0.333313
0.000000 0.000000 0.333313
0.333313 0.000000 0.333313
0.666656 0.000000 0.333313
1.000000 0.000000 0.333313
0.000000 0.000000 0.333313
0.000000 0.000000 0.333313
0.333313 0.000000 0.333313
0.666656 0.000000 0.333313
1.000000 0.000000 0.333313
0.000000 0.333313 0.333313
0.000000 0.333313 0.333313
0.333313 0.333313 0.333313
0.666656 0.333313 0.333313
1.000000 0.333313 0.333313
0.000000 0.666656 0.333313
0.000000 0.666656 0.333313
0.333313 0.666656 0.333313
0.666656 0.666656 0.333313
1.000000 0.666656 0.333313
0.000000 1.000000 0.333313
0.000000 1.000000 0.333313
0.333313 1.000000 0.333313
0.666656 1.000000 0.333313
1.000000 1.000000 0.333313
0.000000 0.000000 0.666656
0.000000 0.000000 0.666656
0.333313 0.000000 0.666656
0.666656 0.000000 0.666656
1.000000 0.000000 0.666656
0.000000 0.000000 0.666656
0.000000 0.000000 0.666656
0.333313 0.000000 0.666656
0.666656 0.000000 0.666656
1.000000 0.000000 0.666656
0.000000 0.333313 0.666656
0.000000 0.333313 0.666656
0.333313 0.333313 0.666656
0.666656 0.333313 0.666656
1.000000 0.333313 0.666656
0.000000 0.666656 0.666656
0.000000 0.666656 0.666656
0.333313 0.666656 0.666656
0.666656 0.666656 0.666656
1.000000 0.666656 0.666656
0.000000 1.000000 0.666656
0.000000 1.000000 0.666656
0.333313 1.000000 0.666656
0.666656 1.000000 0.666656
1.000000 1.000000 0.666656
0.000000 0.000000 1.000000
0.000000 0.000000 1.000000
0.333313 0.000000 1.000000
0.666656 0.000000 1.000000
1.000000 0.000000 1.000000
0.000000 0.000000 1.000000
0.000000 0.000000 1.000000
0.333313 0.000000 1.000000
0.666656 0.000000 1.000000
1.000000 0.000000 1.000000
0.000000 0.333313 1.000000
0.000000 0.333313 1.000000
0.333313 0.333313 1.000000
0.666656 0.333313 1.000000
1.000000 0.333313 1.000000
0.000000 0.666656 1.000000
0.000000 0.666656 1.000000
0.333313 0.666656 1.000000
0.666656 0.666656 1.000000
1.000000 0.666656 1.000000
0.000000 1.000000 1.000000
0.000000 1.000000 1.000000
0.333313 1.000000 1.000000
0.666656 1.000000 1.000000
1.000000 1.000000 1.000000
