assets/lut/Saturate.CUBE
#Created by: Adobe Photoshop Export Color Lookup Plugin
TITLE "Screenshot 2024-03-20 at 07.27.32.png"
#LUT size
LUT_3D_SIZE 32
#data domain
DOMAIN_MIN 0.0 0.0 0.0
DOMAIN_MAX 1.0 1.0 1.0
#LUT data points
0.089996 0.089996 0.089996
0.131561 0.077789 0.077789
0.173126 0.065552 0.065552
0.214691 0.053345 0.053345
0.256287 0.041138 0.041138
0.297791 0.028931 0.028931
0.339386 0.016724 0.016724
0.380951 0.004517 0.004517
0.414825 0.000000 0.000000
0.444183 0.000000 0.000000
0.473541 0.000000 0.000000
0.502899 0.000000 0.000000
0.532257 0.000000 0.000000
0.561584 0.000000 0.000000
0.590942 0.000000 0.000000
0.620300 0.000000 0.000000
0.649689 0.000000 0.000000
0.679047 0.000000 0.000000
0.708405 0.000000 0.000000
0.737762 0.000000 0.000000
0.767090 0.000000 0.000000
0.796448 0.000000 0.000000
0.825806 0.000000 0.000000
0.855164 0.000000 0.000000
0.884521 0.000000 0.000000
0.913879 0.000000 0.000000
0.943237 0.000000 0.000000
0.972595 0.000000 0.000000
1.000000 0.001923 0.001923
1.000000 0.031281 0.031281
1.000000 0.060638 0.060638
1.000000 0.089996 0.089996
0.077789 0.131561 0.077789
0.131561 0.131561 0.077789
0.173126 0.119354 0.065552
0.214691 0.107117 0.053345
0.256287 0.094940 0.041138
0.297791 0.082703 0.028931
0.339386 0.070526 0.016724
0.380951 0.058289 0.004517
0.414825 0.051849 0.000000
0.444183 0.049347 0.000000
0.473541 0.047394 0.000000
0.502899 0.045685 0.000000
0.532257 0.044312 0.000000
0.561584 0.043182 0.000000
0.590942 0.042267 0.000000
0.620300 0.041351 0.000000
0.649689 0.040619 0.000000
0.679047 0.039948 0.000000
0.708405 0.039429 0.000000
0.737762 0.038910 0.000000
0.767090 0.038391 0.000000
0.796448 0.037903 0.000000
0.825806 0.037506 0.000000
0.855164 0.037170 0.000000
0.884521 0.036926 0.000000
0.913879 0.036591 0.000000
0.943237 0.036377 0.000000
0.972595 0.036102 0.000000
1.000000 0.037506 0.001923
1.000000 0.064636 0.031281
1.000000 0.092072 0.060638
1.000000 0.119324 0.089996
0.065552 0.173126 0.065552
0.119354 0.173126 0.065552
0.173126 0.173126 0.065552
0.214691 0.160919 0.053345
0.256287 0.148712 0.041138
0.297791 0.136505 0.028931
0.339386 0.124329 0.016724
0.380951 0.112030 0.004517
0.414825 0.103699 0.000000
0.444183 0.098694 0.000000
0.473541 0.094696 0.000000
0.502899 0.091461 0.000000
0.532257 0.088745 0.000000
0.561584 0.086365 0.000000
0.590942 0.084412 0.000000
0.620300 0.082672 0.000000
0.649689 0.081207 0.000000
0.679047 0.079895 0.000000
0.708405 0.078705 0.000000
0.737762 0.077637 0.000000
0.767090 0.076782 0.000000
0.796448 0.075836 0.000000
0.825806 0.075012 0.000000
0.855164 0.074341 0.000000
0.884521 0.073639 0.000000
0.913879 0.073181 0.000000
0.943237 0.072540 0.000000
0.972595 0.071960 0.000000
1.000000 0.073303 0.001923
1.000000 0.098206 0.031281
1.000000 0.123260 0.060638
1.000000 0.148651 0.089996
0.053345 0.214691 0.053345
0.107117 0.214691 0.053345
0.160919 0.214691 0.053345
0.214691 0.214691 0.053345
0.256287 0.202515 0.041138
0.297791 0.190277 0.028931
0.339386 0.178070 0.016724
0.380951 0.165894 0.004517
0.414825 0.155548 0.000000
0.444183 0.148010 0.000000
0.473541 0.142090 0.000000
0.502899 0.137146 0.000000
0.532257 0.133057 0.000000
0.561584 0.129578 0.000000
0.590942 0.126678 0.000000
0.620300 0.124023 0.000000
0.649689 0.121826 0.000000
0.679047 0.119873 0.000000
0.708405 0.118134 0.000000
0.737762 0.116547 0.000000
0.767090 0.114990 0.000000
0.796448 0.113739 0.000000
0.825806 0.112701 0.000000
0.855164 0.111481 0.000000
0.884521 0.110565 0.000000
0.913879 0.109772 0.000000
0.943237 0.108917 0.000000
0.972595 0.108032 0.000000
1.000000 0.108887 0.001923
1.000000 0.131561 0.031281
1.000000 0.154663 0.060638
1.000000 0.177979 0.089996
0.041138 0.256287 0.041138
0.094940 0.256287 0.041138
0.148712 0.256287 0.041138
0.202515 0.256287 0.041138
0.256287 0.256287 0.041138
0.297791 0.244019 0.028931
0.339386 0.231873 0.016724
0.380951 0.219666 0.004517
0.414825 0.207428 0.000000
0.444183 0.197479 0.000000
0.473541 0.189484 0.000000
0.502899 0.182953 0.000000
0.532257 0.177368 0.000000
0.561584 0.172882 0.000000
0.590942 0.168793 0.000000
0.620300 0.165375 0.000000
0.649689 0.162415 0.000000
0.679047 0.159821 0.000000
0.708405 0.157379 0.000000
0.737762 0.155273 0.000000
0.767090 0.153381 0.000000
0.796448 0.151672 0.000000
0.825806 0.150208 0.000000
0.855164 0.148651 0.000000
0.884521 0.147491 0.000000
0.913879 0.146149 0.000000
0.943237 0.145081 0.000000
0.972595 0.144135 0.000000
1.000000 0.144470 0.001923
1.000000 0.164917 0.031281
1.000000 0.185852 0.060638
1.000000 0.207520 0.089996
0.028931 0.297791 0.028931
0.082703 0.297791 0.028931
0.136505 0.297791 0.028931
0.190277 0.297791 0.028931
0.244019 0.297791 0.028931
0.297791 0.297791 0.028931
0.339386 0.285583 0.016724
0.380951 0.273438 0.004517
0.414825 0.259277 0.000000
0.444183 0.246704 0.000000
0.473541 0.236786 0.000000
0.502899 0.228607 0.000000
0.532257 0.221680 0.000000
0.561584 0.215942 0.000000
0.590942 0.211060 0.000000
0.620300 0.206726 0.000000
0.649689 0.203033 0.000000
0.679047 0.199768 0.000000
0.708405 0.196808 0.000000
0.737762 0.194153 0.000000
0.767090 0.191772 0.000000
0.796448 0.189575 0.000000
0.825806 0.187714 0.000000
0.855164 0.185822 0.000000
0.884521 0.184204 0.000000
0.913879 0.182739 0.000000
0.943237 0.181458 0.000000
0.972595 0.179993 0.000000
1.000000 0.180054 0.001923
1.000000 0.198242 0.031281
1.000000 0.217285 0.060638
1.000000 0.236847 0.089996
0.016724 0.339386 0.016724
0.070526 0.339386 0.016724
0.124329 0.339386 0.016724
0.178070 0.339386 0.016724
0.231873 0.339386 0.016724
0.285583 0.339386 0.016724
0.339386 0.339386 0.016724
0.380951 0.327179 0.004517
0.414825 0.311127 0.000000
0.444183 0.296173 0.000000
0.473541 0.284058 0.000000
0.502899 0.274292 0.000000
0.532257 0.266144 0.000000
0.561584 0.259125 0.000000
0.590942 0.253204 0.000000
0.620300 0.248047 0.000000
0.649689 0.243622 0.000000
0.679047 0.239563 0.000000
0.708405 0.236084 0.000000
0.737762 0.232880 0.000000
0.767090 0.230164 0.000000
0.796448 0.227509 0.000000
0.825806 0.225189 0.000000
0.855164 0.222992 0.000000
0.884521 0.221130 0.000000
0.913879 0.219330 0.000000
0.943237 0.217621 0.000000
0.972595 0.216064 0.000000
1.000000 0.215851 0.001923
1.000000 0.231598 0.031281
1.000000 0.248474 0.060638
1.000000 0.266174 0.089996
0.004517 0.380951 0.004517
0.058289 0.380951 0.004517
0.112030 0.380951 0.004517
0.165894 0.380951 0.004517
0.219666 0.380951 0.004517
0.273438 0.380951 0.004517
0.327179 0.380951 0.004517
0.380951 0.380951 0.004517
0.414825 0.362976 0.000000
0.444183 0.345490 0.000000
0.473541 0.331451 0.000000
0.502899 0.319946 0.000000
0.532257 0.310425 0.000000
0.561584 0.302460 0.000000
0.590942 0.295471 0.000000
0.620300 0.289398 0.000000
0.649689 0.284241 0.000000
0.679047 0.279510 0.000000
0.708405 0.275513 0.000000
0.737762 0.271790 0.000000
0.767090 0.268555 0.000000
0.796448 0.265411 0.000000
0.825806 0.262695 0.000000
0.855164 0.260345 0.000000
0.884521 0.258057 0.000000
0.913879 0.255920 0.000000
0.943237 0.253998 0.000000
0.972595 0.252167 0.000000
1.000000 0.251434 0.001923
1.000000 0.265198 0.031281
1.000000 0.279877 0.060638
1.000000 0.295502 0.089996
0.000000 0.414825 0.000000
0.051849 0.414825 0.000000
0.103699 0.414825 0.000000
0.155548 0.414825 0.000000
0.207428 0.414825 0.000000
0.259277 0.414825 0.000000
0.311127 0.414825 0.000000
0.362976 0.414825 0.000000
0.414825 0.414825 0.000000
0.444183 0.394836 0.000000
0.473541 0.378845 0.000000
0.502899 0.365753 0.000000
0.532257 0.354889 0.000000
0.561584 0.345642 0.000000
0.590942 0.337738 0.000000
0.620300 0.330902 0.000000
0.649689 0.324860 0.000000
0.679047 0.319458 0.000000
0.708405 0.314758 0.000000
0.737762 0.310699 0.000000
0.767090 0.306763 0.000000
0.796448 0.303345 0.000000
0.825806 0.300201 0.000000
0.855164 0.297516 0.000000
0.884521 0.294769 0.000000
0.913879 0.292511 0.000000
0.943237 0.290161 0.000000
0.972595 0.288269 0.000000
1.000000 0.287018 0.001923
1.000000 0.298523 0.031281
1.000000 0.311066 0.060638
1.000000 0.324829 0.089996
0.000000 0.444183 0.000000
0.049347 0.444183 0.000000
0.098694 0.444183 0.000000
0.148010 0.444183 0.000000
0.197479 0.444183 0.000000
0.246704 0.444183 0.000000
0.296173 0.444183 0.000000
0.345490 0.444183 0.000000
0.394836 0.444183 0.000000
0.444183 0.444183 0.000000
0.473541 0.426147 0.000000
0.502899 0.411438 0.000000
0.532257 0.399200 0.000000
0.561584 0.388824 0.000000
0.590942 0.379883 0.000000
0.620300 0.372253 0.000000
0.649689 0.365448 0.000000
0.679047 0.359406 0.000000
0.708405 0.354218 0.000000
0.737762 0.349426 0.000000
0.767090 0.345154 0.000000
0.796448 0.341248 0.000000
0.825806 0.337891 0.000000
0.855164 0.334686 0.000000
0.884521 0.331696 0.000000
0.913879 0.329102 0.000000
0.943237 0.326538 0.000000
0.972595 0.324127 0.000000
1.000000 0.322845 0.001923
1.000000 0.331879 0.031281
1.000000 0.342499 0.060638
1.000000 0.354156 0.089996
0.000000 0.473541 0.000000
0.047394 0.473541 0.000000
0.094696 0.473541 0.000000
0.142090 0.473541 0.000000
0.189484 0.473541 0.000000
0.236786 0.473541 0.000000
0.284058 0.473541 0.000000
0.331451 0.473541 0.000000
0.378845 0.473541 0.000000
0.426147 0.473541 0.000000
0.473541 0.473541 0.000000
0.502899 0.457214 0.000000
0.532257 0.443512 0.000000
0.561584 0.432007 0.000000
0.590942 0.422150 0.000000
0.620300 0.413574 0.000000
0.649689 0.406067 0.000000
0.679047 0.399384 0.000000
0.708405 0.393463 0.000000
0.737762 0.388336 0.000000
0.767090 0.383545 0.000000
0.796448 0.379181 0.000000
0.825806 0.375397 0.000000
0.855164 0.371826 0.000000
0.884521 0.368622 0.000000
0.913879 0.365448 0.000000
0.943237 0.362701 0.000000
0.972595 0.360199 0.000000
1.000000 0.358398 0.001923
1.000000 0.365234 0.031281
1.000000 0.373688 0.060638
1.000000 0.383484 0.089996
0.000000 0.502899 0.000000
0.045685 0.502899 0.000000
0.091461 0.502899 0.000000
0.137146 0.502899 0.000000
0.182953 0.502899 0.000000
0.228607 0.502899 0.000000
0.274292 0.502899 0.000000
0.319946 0.502899 0.000000
0.365753 0.502899 0.000000
0.411438 0.502899 0.000000
0.457214 0.502899 0.000000
0.502899 0.502899 0.000000
0.532257 0.487946 0.000000
0.561584 0.475220 0.000000
0.590942 0.464264 0.000000
0.620300 0.454926 0.000000
0.649689 0.446655 0.000000
0.679047 0.439331 0.000000
0.708405 0.432892 0.000000
0.737762 0.427063 0.000000
0.767090 0.421936 0.000000
0.796448 0.417267 0.000000
0.825806 0.412903 0.000000
0.855164 0.408997 0.000000
0.884521 0.405334 0.000000
0.913879 0.402039 0.000000
0.943237 0.399078 0.000000
0.972595 0.396301 0.000000
1.000000 0.393982 0.001923
1.000000 0.398804 0.031281
1.000000 0.405090 0.060638
1.000000 0.412811 0.089996
0.000000 0.532257 0.000000
0.044312 0.532257 0.000000
0.088745 0.532257 0.000000
0.133057 0.532257 0.000000
0.177368 0.532257 0.000000
0.221680 0.532257 0.000000
0.266144 0.532257 0.000000
0.310425 0.532257 0.000000
0.354889 0.532257 0.000000
0.399200 0.532257 0.000000
0.443512 0.532257 0.000000
0.487946 0.532257 0.000000
0.532257 0.532257 0.000000
0.561584 0.518402 0.000000
0.590942 0.506531 0.000000
0.620300 0.496277 0.000000
0.649689 0.487274 0.000000
0.679047 0.479279 0.000000
0.708405 0.472321 0.000000
0.737762 0.465973 0.000000
0.767090 0.460327 0.000000
0.796448 0.455200 0.000000
0.825806 0.450409 0.000000
0.855164 0.446167 0.000000
0.884521 0.442261 0.000000
0.913879 0.438629 0.000000
0.943237 0.435242 0.000000
0.972595 0.432159 0.000000
1.000000 0.429565 0.001923
1.000000 0.432159 0.031281
1.000000 0.436279 0.060638
1.000000 0.442352 0.089996
0.000000 0.561584 0.000000
0.043182 0.561584 0.000000
0.086365 0.561584 0.000000
0.129578 0.561584 0.000000
0.172882 0.561584 0.000000
0.215942 0.561584 0.000000
0.259125 0.561584 0.000000
0.302460 0.561584 0.000000
0.345642 0.561584 0.000000
0.388824 0.561584 0.000000
0.432007 0.561584 0.000000
0.475220 0.561584 0.000000
0.518402 0.561584 0.000000
0.561584 0.561584 0.000000
0.590942 0.548676 0.000000
0.620300 0.537628 0.000000
0.649689 0.527863 0.000000
0.679047 0.519226 0.000000
0.708405 0.511597 0.000000
0.737762 0.504700 0.000000
0.767090 0.498535 0.000000
0.796448 0.492920 0.000000
0.825806 0.487915 0.000000
0.855164 0.483337 0.000000
0.884521 0.479187 0.000000
0.913879 0.475250 0.000000
0.943237 0.471619 0.000000
0.972595 0.468262 0.000000
1.000000 0.465393 0.001923
1.000000 0.465515 0.031281
1.000000 0.467712 0.060638
1.000000 0.471680 0.089996
0.000000 0.590942 0.000000
0.042267 0.590942 0.000000
0.084412 0.590942 0.000000
0.126678 0.590942 0.000000
0.168793 0.590942 0.000000
0.211060 0.590942 0.000000
0.253204 0.590942 0.000000
0.295471 0.590942 0.000000
0.337738 0.590942 0.000000
0.379883 0.590942 0.000000
0.422150 0.590942 0.000000
0.464264 0.590942 0.000000
0.506531 0.590942 0.000000
0.548676 0.590942 0.000000
0.590942 0.590942 0.000000
0.620300 0.578949 0.000000
0.649689 0.568481 0.000000
0.679047 0.559174 0.000000
0.708405 0.550842 0.000000
0.737762 0.543610 0.000000
0.767090 0.536926 0.000000
0.796448 0.531036 0.000000
0.825806 0.525391 0.000000
0.855164 0.520477 0.000000
0.884521 0.515900 0.000000
0.913879 0.511841 0.000000
0.943237 0.507782 0.000000
0.972595 0.504333 0.000000
1.000000 0.500977 0.001923
1.000000 0.498840 0.031281
1.000000 0.498901 0.060638
1.000000 0.501007 0.089996
0.000000 0.620300 0.000000
0.041351 0.620300 0.000000
0.082672 0.620300 0.000000
0.124023 0.620300 0.000000
0.165375 0.620300 0.000000
0.206726 0.620300 0.000000
0.248047 0.620300 0.000000
0.289398 0.620300 0.000000
0.330902 0.620300 0.000000
0.372253 0.620300 0.000000
0.413574 0.620300 0.000000
0.454926 0.620300 0.000000
0.496277 0.620300 0.000000
0.537628 0.620300 0.000000
0.578949 0.620300 0.000000
0.620300 0.620300 0.000000
0.649689 0.609070 0.000000
0.679047 0.599152 0.000000
0.708405 0.590271 0.000000
0.737762 0.582306 0.000000
0.767090 0.575317 0.000000
0.796448 0.568939 0.000000
0.825806 0.563110 0.000000
0.855164 0.557648 0.000000
0.884521 0.552826 0.000000
0.913879 0.548187 0.000000
0.943237 0.544159 0.000000
0.972595 0.540192 0.000000
1.000000 0.536530 0.001923
1.000000 0.532440 0.031281
1.000000 0.530334 0.060638
1.000000 0.530334 0.089996
0.000000 0.649689 0.000000
0.040619 0.649689 0.000000
0.081207 0.649689 0.000000
0.121826 0.649689 0.000000
0.162415 0.649689 0.000000
0.203033 0.649689 0.000000
0.243622 0.649689 0.000000
0.284241 0.649689 0.000000
0.324860 0.649689 0.000000
0.365448 0.649689 0.000000
0.406067 0.649689 0.000000
0.446655 0.649689 0.000000
0.487274 0.649689 0.000000
0.527863 0.649689 0.000000
0.568481 0.649689 0.000000
0.609070 0.649689 0.000000
0.649689 0.649689 0.000000
0.679047 0.639099 0.000000
0.708405 0.629700 0.000000
0.737762 0.621216 0.000000
0.767090 0.613708 0.000000
0.796448 0.606873 0.000000
0.825806 0.600616 0.000000
0.855164 0.594818 0.000000
0.884521 0.589752 0.000000
0.913879 0.584778 0.000000
0.943237 0.580536 0.000000
0.972595 0.576294 0.000000
1.000000 0.572357 0.001923
1.000000 0.565765 0.031281
1.000000 0.561737 0.060638
1.000000 0.559662 0.089996
0.000000 0.679047 0.000000
0.039948 0.679047 0.000000
0.079895 0.679047 0.000000
0.119873 0.679047 0.000000
0.159821 0.679047 0.000000
0.199768 0.679047 0.000000
0.239563 0.679047 0.000000
0.279510 0.679047 0.000000
0.319458 0.679047 0.000000
0.359406 0.679047 0.000000
0.399384 0.679047 0.000000
0.439331 0.679047 0.000000
0.479279 0.679047 0.000000
0.519226 0.679047 0.000000
0.559174 0.679047 0.000000
0.599152 0.679047 0.000000
0.639099 0.679047 0.000000
0.679047 0.679047 0.000000
0.708405 0.668976 0.000000
0.737762 0.660126 0.000000
0.767090 0.652100 0.000000
0.796448 0.644775 0.000000
0.825806 0.638092 0.000000
0.855164 0.632172 0.000000
0.884521 0.626465 0.000000
0.913879 0.621368 0.000000
0.943237 0.616699 0.000000
0.972595 0.612396 0.000000
1.000000 0.607941 0.001923
1.000000 0.599121 0.031281
1.000000 0.592926 0.060638
1.000000 0.588989 0.089996
0.000000 0.708405 0.000000
0.039429 0.708405 0.000000
0.078705 0.708405 0.000000
0.118134 0.708405 0.000000
0.157379 0.708405 0.000000
0.196808 0.708405 0.000000
0.236084 0.708405 0.000000
0.275513 0.708405 0.000000
0.314758 0.708405 0.000000
0.354218 0.708405 0.000000
0.393463 0.708405 0.000000
0.432892 0.708405 0.000000
0.472321 0.708405 0.000000
0.511597 0.708405 0.000000
0.550842 0.708405 0.000000
0.590271 0.708405 0.000000
0.629700 0.708405 0.000000
0.668976 0.708405 0.000000
0.708405 0.708405 0.000000
0.737762 0.698853 0.000000
0.767090 0.690491 0.000000
0.796448 0.682709 0.000000
0.825806 0.675598 0.000000
0.855164 0.669342 0.000000
0.884521 0.663391 0.000000
0.913879 0.657959 0.000000
0.943237 0.653076 0.000000
0.972595 0.648468 0.000000
1.000000 0.643524 0.001923
1.000000 0.632477 0.031281
1.000000 0.624359 0.060638
1.000000 0.618317 0.089996
0.000000 0.737762 0.000000
0.038910 0.737762 0.000000
0.077637 0.737762 0.000000
0.116547 0.737762 0.000000
0.155273 0.737762 0.000000
0.194153 0.737762 0.000000
0.232880 0.737762 0.000000
0.271790 0.737762 0.000000
0.310699 0.737762 0.000000
0.349426 0.737762 0.000000
0.388336 0.737762 0.000000
0.427063 0.737762 0.000000
0.465973 0.737762 0.000000
0.504700 0.737762 0.000000
0.543610 0.737762 0.000000
0.582306 0.737762 0.000000
0.621216 0.737762 0.000000
0.660126 0.737762 0.000000
0.698853 0.737762 0.000000
0.737762 0.737762 0.000000
0.767090 0.728699 0.000000
0.796448 0.720612 0.000000
0.825806 0.713318 0.000000
0.855164 0.706512 0.000000
0.884521 0.700317 0.000000
0.913879 0.694550 0.000000
0.943237 0.689240 0.000000
0.972595 0.684326 0.000000
1.000000 0.679321 0.001923
1.000000 0.666046 0.031281
1.000000 0.655548 0.060638
1.000000 0.647858 0.089996
0.000000 0.767090 0.000000
0.038391 0.767090 0.000000
0.076782 0.767090 0.000000
0.114990 0.767090 0.000000
0.153381 0.767090 0.000000
0.191772 0.767090 0.000000
0.230164 0.767090 0.000000
0.268555 0.767090 0.000000
0.306763 0.767090 0.000000
0.345154 0.767090 0.000000
0.383545 0.767090 0.000000
0.421936 0.767090 0.000000
0.460327 0.767090 0.000000
0.498535 0.767090 0.000000
0.536926 0.767090 0.000000
0.575317 0.767090 0.000000
0.613708 0.767090 0.000000
0.652100 0.767090 0.000000
0.690491 0.767090 0.000000
0.728699 0.767090 0.000000
0.767090 0.767090 0.000000
0.796448 0.758545 0.000000
0.825806 0.750793 0.000000
0.855164 0.743683 0.000000
0.884521 0.737030 0.000000
0.913879 0.731140 0.000000
0.943237 0.725616 0.000000
0.972595 0.720428 0.000000
1.000000 0.714905 0.001923
1.000000 0.699402 0.031281
1.000000 0.686951 0.060638
1.000000 0.677185 0.089996
0.000000 0.796448 0.000000
0.037903 0.796448 0.000000
0.075836 0.796448 0.000000
0.113739 0.796448 0.000000
0.151672 0.796448 0.000000
0.189575 0.796448 0.000000
0.227509 0.796448 0.000000
0.265411 0.796448 0.000000
0.303345 0.796448 0.000000
0.341248 0.796448 0.000000
0.379181 0.796448 0.000000
0.417267 0.796448 0.000000
0.455200 0.796448 0.000000
0.492920 0.796448 0.000000
0.531036 0.796448 0.000000
0.568939 0.796448 0.000000
0.606873 0.796448 0.000000
0.644775 0.796448 0.000000
0.682709 0.796448 0.000000
0.720612 0.796448 0.000000
0.758545 0.796448 0.000000
0.796448 0.796448 0.000000
0.825806 0.788300 0.000000
0.855164 0.780823 0.000000
0.884521 0.773956 0.000000
0.913879 0.767731 0.000000
0.943237 0.761780 0.000000
0.972595 0.756531 0.000000
1.000000 0.750488 0.001923
1.000000 0.732758 0.031281
1.000000 0.718140 0.060638
1.000000 0.706512 0.089996
0.000000 0.825806 0.000000
0.037506 0.825806 0.000000
0.075012 0.825806 0.000000
0.112701 0.825806 0.000000
0.150208 0.825806 0.000000
0.187714 0.825806 0.000000
0.225189 0.825806 0.000000
0.262695 0.825806 0.000000
0.300201 0.825806 0.000000
0.337891 0.825806 0.000000
0.375397 0.825806 0.000000
0.412903 0.825806 0.000000
0.450409 0.825806 0.000000
0.487915 0.825806 0.000000
0.525391 0.825806 0.000000
0.563110 0.825806 0.000000
0.600616 0.825806 0.000000
0.638092 0.825806 0.000000
0.675598 0.825806 0.000000
0.713318 0.825806 0.000000
0.750793 0.825806 0.000000
0.788300 0.825806 0.000000
0.825806 0.825806 0.000000
0.855164 0.817993 0.000000
0.884521 0.810883 0.000000
0.913879 0.804108 0.000000
0.943237 0.798157 0.000000
0.972595 0.792358 0.000000
1.000000 0.786072 0.001923
1.000000 0.766083 0.031281
1.000000 0.749573 0.060638
1.000000 0.735840 0.089996
0.000000 0.855164 0.000000
0.037170 0.855164 0.000000
0.074341 0.855164 0.000000
0.111481 0.855164 0.000000
0.148651 0.855164 0.000000
0.185822 0.855164 0.000000
0.222992 0.855164 0.000000
0.260345 0.855164 0.000000
0.297516 0.855164 0.000000
0.334686 0.855164 0.000000
0.371826 0.855164 0.000000
0.408997 0.855164 0.000000
0.446167 0.855164 0.000000
0.483337 0.855164 0.000000
0.520477 0.855164 0.000000
0.557648 0.855164 0.000000
0.594818 0.855164 0.000000
0.632172 0.855164 0.000000
0.669342 0.855164 0.000000
0.706512 0.855164 0.000000
0.743683 0.855164 0.000000
0.780823 0.855164 0.000000
0.817993 0.855164 0.000000
0.855164 0.855164 0.000000
0.884521 0.847595 0.000000
0.913879 0.840698 0.000000
0.943237 0.834320 0.000000
0.972595 0.828461 0.000000
1.000000 0.821869 0.001923
1.000000 0.799683 0.031281
1.000000 0.780762 0.060638
1.000000 0.765167 0.089996
0.000000 0.884521 0.000000
0.036926 0.884521 0.000000
0.073639 0.884521 0.000000
0.110565 0.884521 0.000000
0.147491 0.884521 0.000000
0.184204 0.884521 0.000000
0.221130 0.884521 0.000000
0.258057 0.884521 0.000000
0.294769 0.884521 0.000000
0.331696 0.884521 0.000000
0.368622 0.884521 0.000000
0.405334 0.884521 0.000000
0.442261 0.884521 0.000000
0.479187 0.884521 0.000000
0.515900 0.884521 0.000000
0.552826 0.884521 0.000000
0.589752 0.884521 0.000000
0.626465 0.884521 0.000000
0.663391 0.884521 0.000000
0.700317 0.884521 0.000000
0.737030 0.884521 0.000000
0.773956 0.884521 0.000000
0.810883 0.884521 0.000000
0.847595 0.884521 0.000000
0.884521 0.884521 0.000000
0.913879 0.877289 0.000000
0.943237 0.870697 0.000000
0.972595 0.864563 0.000000
1.000000 0.857452 0.001923
1.000000 0.833038 0.031281
1.000000 0.812164 0.060638
1.000000 0.794495 0.089996
0.000000 0.913879 0.000000
0.036591 0.913879 0.000000
0.073181 0.913879 0.000000
0.109772 0.913879 0.000000
0.146149 0.913879 0.000000
0.182739 0.913879 0.000000
0.219330 0.913879 0.000000
0.255920 0.913879 0.000000
0.292511 0.913879 0.000000
0.329102 0.913879 0.000000
0.365448 0.913879 0.000000
0.402039 0.913879 0.000000
0.438629 0.913879 0.000000
0.475250 0.913879 0.000000
0.511841 0.913879 0.000000
0.548187 0.913879 0.000000
0.584778 0.913879 0.000000
0.621368 0.913879 0.000000
0.657959 0.913879 0.000000
0.694550 0.913879 0.000000
0.731140 0.913879 0.000000
0.767731 0.913879 0.000000
0.804108 0.913879 0.000000
0.840698 0.913879 0.000000
0.877289 0.913879 0.000000
0.913879 0.913879 0.000000
0.943237 0.906860 0.000000
0.972595 0.900635 0.000000
1.000000 0.893036 0.001923
1.000000 0.866364 0.031281
1.000000 0.843353 0.060638
1.000000 0.823822 0.089996
0.000000 0.943237 0.000000
0.036377 0.943237 0.000000
0.072540 0.943237 0.000000
0.108917 0.943237 0.000000
0.145081 0.943237 0.000000
0.181458 0.943237 0.000000
0.217621 0.943237 0.000000
0.253998 0.943237 0.000000
0.290161 0.943237 0.000000
0.326538 0.943237 0.000000
0.362701 0.943237 0.000000
0.399078 0.943237 0.000000
0.435242 0.943237 0.000000
0.471619 0.943237 0.000000
0.507782 0.943237 0.000000
0.544159 0.943237 0.000000
0.580536 0.943237 0.000000
0.616699 0.943237 0.000000
0.653076 0.943237 0.000000
0.689240 0.943237 0.000000
0.725616 0.943237 0.000000
0.761780 0.943237 0.000000
0.798157 0.943237 0.000000
0.834320 0.943237 0.000000
0.870697 0.943237 0.000000
0.906860 0.943237 0.000000
0.943237 0.943237 0.000000
0.972595 0.936493 0.000000
1.000000 0.928833 0.001923
1.000000 0.899719 0.031281
1.000000 0.874786 0.060638
1.000000 0.853149 0.089996
0.000000 0.972595 0.000000
0.036102 0.972595 0.000000
0.071960 0.972595 0.000000
0.108032 0.972595 0.000000
0.144135 0.972595 0.000000
0.179993 0.972595 0.000000
0.216064 0.972595 0.000000
0.252167 0.972595 0.000000
0.288269 0.972595 0.000000
0.324127 0.972595 0.000000
0.360199 0.972595 0.000000
0.396301 0.972595 0.000000
0.432159 0.972595 0.000000
0.468262 0.972595 0.000000
0.504333 0.972595 0.000000
0.540192 0.972595 0.000000
0.576294 0.972595 0.000000
