assets/lut/Saturate.CUBE
#Created by: Adobe Photoshop Export Color Lookup Plugin
TITLE "Screenshot 2024-03-20 at 07.27.32.png"
#LUT size
LUT_3D_SIZE 8
#data domain
#LUT data points
DOMAIN_MIN 0.000000 0.000000 0.000000
DOMAIN_MAX 0.903226 0.903226 0.903226
0.089996 0.089996 0.089996
0.256287 0.041138 0.041138
0.414825 0.000000 0.000000
0.532257 0.000000 0.000000
0.649689 0.000000 0.000000
0.767090 0.000000 0.000000
0.884521 0.000000 0.000000
1.000000 0.001923 0.001923
0.041138 0.256287 0.041138
0.256287 0.256287 0.041138
0.414825 0.207428 0.000000
0.532257 0.177368 0.000000
0.649689 0.162415 0.000000
0.767090 0.153381 0.000000
0.884521 0.147491 0.000000
1.000000 0.144470 0.001923
0.000000 0.414825 0.000000
0.207428 0.414825 0.000000
0.414825 0.414825 0.000000
0.532257 0.354889 0.000000
0.649689 0.324860 0.000000
0.767090 0.306763 0.000000
0.884521 0.294769 0.000000
1.000000 0.287018 0.001923
0.000000 0.532257 0.000000
0.177368 0.532257 0.000000
0.354889 0.532257 0.000000
0.532257 0.532257 0.000000
0.649689 0.487274 0.000000
0.767090 0.460327 0.000000
0.884521 0.442261 0.000000
1.000000 0.429565 0.001923
0.000000 0.649689 0.000000
0.162415 0.649689 0.000000
0.324860 0.649689 0.000000
0.487274 0.649689 0.000000
0.649689 0.649689 0.000000
0.767090 0.613708 0.000000
0.884521 0.589752 0.000000
1.000000 0.572357 0.001923
0.000000 0.767090 0.000000
0.153381 0.767090 0.000000
0.306763 0.767090 0.000000
0.460327 0.767090 0.000000
0.613708 0.767090 0.000000
0.767090 0.767090 0.000000
0.884521 0.737030 0.000000
1.000000 0.714905 0.001923
0.000000 0.884521 0.000000
0.147491 0.884521 0.000000
0.294769 0.884521 0.000000
0.442261 0.884521 0.000000
0.589752 0.884521 0.000000
0.737030 0.884521 0.000000
0.884521 0.884521 0.000000
1.000000 0.857452 0.001923
0.001923 1.000000 0.001923
0.144470 1.000000 0.001923
0.287018 1.000000 0.001923
0.429565 1.000000 0.001923
0.572357 1.000000 0.001923
0.714905 1.000000 0.001923
0.857452 1.000000 0.001923
1.000000 1.000000 0.001923
0.041138 0.041138 0.256287
0.256287 0.041138 0.256287
0.414825 0.000000 0.207428
0.532257 0.000000 0.177368
0.649689 0.000000 0.162415
0.767090 0.000000 0.153381
0.884521 0.000000 0.147491
1.000000 0.001923 0.144470
0.041138 0.256287 0.256287
0.207428 0.207428 0.207428
0.373657 0.158569 0.158569
0.539948 0.109741 0.109741
0.706238 0.060883 0.060883
0.872467 0.012024 0.012024
1.000000 0.001953 0.001953
1.000000 0.119354 0.119354
0.000000 0.414825 0.207428
0.158569 0.373657 0.158569
0.373657 0.373657 0.158569
0.539948 0.324860 0.109741
0.706238 0.275940 0.060883
0.872467 0.227142 0.012024
1.000000 0.201508 0.001953
1.000000 0.266205 0.119354
0.000000 0.532257 0.177368
0.109741 0.539948 0.109741
0.324860 0.539948 0.109741
0.539948 0.539948 0.109741
0.706238 0.491180 0.060883
0.872467 0.442261 0.012024
1.000000 0.401062 0.001953
1.000000 0.412842 0.119354
0.000000 0.649689 0.162415
0.060883 0.706238 0.060883
0.275940 0.706238 0.060883
0.491180 0.706238 0.060883
0.706238 0.706238 0.060883
0.872467 0.657349 0.012024
1.000000 0.600891 0.001953
1.000000 0.559692 0.119354
0.000000 0.767090 0.153381
0.012024 0.872467 0.012024
0.227142 0.872467 0.012024
0.442261 0.872467 0.012024
0.657349 0.872467 0.012024
0.872467 0.872467 0.012024
1.000000 0.800446 0.001953
1.000000 0.706512 0.119354
0.000000 0.884521 0.147491
0.001953 1.000000 0.001953
0.201508 1.000000 0.001953
0.401062 1.000000 0.001953
0.600891 1.000000 0.001953
0.800446 1.000000 0.001953
1.000000 1.000000 0.001953
1.000000 0.853149 0.119354
0.001923 1.000000 0.144470
0.119354 1.000000 0.119354
0.266205 1.000000 0.119354
0.412842 1.000000 0.119354
0.559692 1.000000 0.119354
0.706512 1.000000 0.119354
0.853149 1.000000 0.119354
1.000000 1.000000 0.119354
0.000000 0.000000 0.414825
0.207428 0.000000 0.414825
0.414825 0.000000 0.414825
0.532257 0.000000 0.354889
0.649689 0.000000 0.324860
0.767090 0.000000 0.306763
0.884521 0.000000 0.294769
1.000000 0.001923 0.287018
0.000000 0.207428 0.414825
0.158569 0.158569 0.373657
0.373657 0.158569 0.373657
0.539948 0.109741 0.324860
0.706238 0.060883 0.275940
0.872467 0.012024 0.227142
1.000000 0.001953 0.201508
1.000000 0.119354 0.266205
0.000000 0.414825 0.414825
0.158569 0.373657 0.373657
0.324829 0.324829 0.324829
0.491119 0.275970 0.275970
0.657379 0.227112 0.227112
0.823639 0.178284 0.178284
0.989929 0.129425 0.129425
1.000000 0.236755 0.236755
0.000000 0.532257 0.354889
0.109741 0.539948 0.324860
0.275970 0.491119 0.275970
0.491119 0.491119 0.275970
0.657379 0.442261 0.227112
0.823639 0.393341 0.178284
0.989929 0.344543 0.129425
1.000000 0.389374 0.236755
0.000000 0.649689 0.324860
0.060883 0.706238 0.275940
0.227112 0.657379 0.227112
0.442261 0.657379 0.227112
0.657379 0.657379 0.227112
0.823639 0.608582 0.178284
0.989929 0.559692 0.129425
1.000000 0.542175 0.236755
0.000000 0.767090 0.306763
0.012024 0.872467 0.227142
0.178284 0.823639 0.178284
0.393341 0.823639 0.178284
0.608582 0.823639 0.178284
0.823639 0.823639 0.178284
0.989929 0.774811 0.129425
1.000000 0.694763 0.236755
0.000000 0.884521 0.294769
0.001953 1.000000 0.201508
0.129425 0.989929 0.129425
0.344543 0.989929 0.129425
0.559692 0.989929 0.129425
0.774811 0.989929 0.129425
0.989929 0.989929 0.129425
1.000000 0.847382 0.236755
0.001923 1.000000 0.287018
0.119354 1.000000 0.266205
0.236755 1.000000 0.236755
0.389374 1.000000 0.236755
0.542175 1.000000 0.236755
0.694763 1.000000 0.236755
0.847382 1.000000 0.236755
1.000000 1.000000 0.236755
0.000000 0.000000 0.532257
0.177368 0.000000 0.532257
0.354889 0.000000 0.532257
0.532257 0.000000 0.532257
0.649689 0.000000 0.487274
0.767090 0.000000 0.460327
0.884521 0.000000 0.442261
1.000000 0.001923 0.429565
0.000000 0.177368 0.532257
0.109741 0.109741 0.539948
0.324860 0.109741 0.539948
0.539948 0.109741 0.539948
0.706238 0.060883 0.491180
0.872467 0.012024 0.442261
1.000000 0.001953 0.401062
1.000000 0.119354 0.412842
0.000000 0.354889 0.532257
0.109741 0.324860 0.539948
0.275970 0.275970 0.491119
0.491119 0.275970 0.491119
0.657379 0.227112 0.442261
0.823639 0.178284 0.393341
0.989929 0.129425 0.344543
1.000000 0.236755 0.389374
0.000000 0.532257 0.532257
0.109741 0.539948 0.539948
0.275970 0.491119 0.491119
0.442261 0.442261 0.442261
0.608551 0.393402 0.393402
0.774780 0.344574 0.344574
0.941071 0.295715 0.295715
1.000000 0.354187 0.354187
0.000000 0.649689 0.487274
0.060883 0.706238 0.491180
0.227112 0.657379 0.442261
0.393402 0.608551 0.393402
0.608551 0.608551 0.393402
0.774780 0.559692 0.344574
0.941071 0.510773 0.295715
1.000000 0.515656 0.354187
0.000000 0.767090 0.460327
0.012024 0.872467 0.442261
0.178284 0.823639 0.393341
0.344574 0.774780 0.344574
0.559692 0.774780 0.344574
0.774780 0.774780 0.344574
0.941071 0.726013 0.295715
1.000000 0.677094 0.354187
0.000000 0.884521 0.442261
0.001953 1.000000 0.401062
0.129425 0.989929 0.344543
0.295715 0.941071 0.295715
0.510773 0.941071 0.295715
0.726013 0.941071 0.295715
0.941071 0.941071 0.295715
1.000000 0.838562 0.354187
0.001923 1.000000 0.429565
0.119354 1.000000 0.412842
0.236755 1.000000 0.389374
0.354187 1.000000 0.354187
0.515656 1.000000 0.354187
0.677094 1.000000 0.354187
0.838562 1.000000 0.354187
1.000000 1.000000 0.354187
0.000000 0.000000 0.649689
0.162415 0.000000 0.649689
0.324860 0.000000 0.649689
0.487274 0.000000 0.649689
0.649689 0.000000 0.649689
0.767090 0.000000 0.613708
0.884521 0.000000 0.589752
1.000000 0.001923 0.572357
0.000000 0.162415 0.649689
0.060883 0.060883 0.706238
0.275940 0.060883 0.706238
0.491180 0.060883 0.706238
0.706238 0.060883 0.706238
0.872467 0.012024 0.657349
1.000000 0.001953 0.600891
1.000000 0.119354 0.559692
0.000000 0.324860 0.649689
0.060883 0.275940 0.706238
0.227112 0.227112 0.657379
0.442261 0.227112 0.657379
0.657379 0.227112 0.657379
0.823639 0.178284 0.608582
0.989929 0.129425 0.559692
1.000000 0.236755 0.542175
0.000000 0.487274 0.649689
0.060883 0.491180 0.706238
0.227112 0.442261 0.657379
0.393402 0.393402 0.608551
0.608551 0.393402 0.608551
0.774780 0.344574 0.559692
0.941071 0.295715 0.510773
1.000000 0.354187 0.515656
0.000000 0.649689 0.649689
0.060883 0.706238 0.706238
0.227112 0.657379 0.657379
0.393402 0.608551 0.608551
0.559692 0.559692 0.559692
0.725922 0.510834 0.510834
0.892212 0.462006 0.462006
1.000000 0.471619 0.471619
0.000000 0.767090 0.613708
0.012024 0.872467 0.657349
0.178284 0.823639 0.608582
0.344574 0.774780 0.559692
0.510834 0.725922 0.510834
0.725922 0.725922 0.510834
0.892212 0.677124 0.462006
1.000000 0.647705 0.471619
0.000000 0.884521 0.589752
0.001953 1.000000 0.600891
0.129425 0.989929 0.559692
0.295715 0.941071 0.510773
0.462006 0.892212 0.462006
0.677124 0.892212 0.462006
0.892212 0.892212 0.462006
1.000000 0.823914 0.471619
0.001923 1.000000 0.572357
0.119354 1.000000 0.559692
0.236755 1.000000 0.542175
0.354187 1.000000 0.515656
0.471619 1.000000 0.471619
0.647705 1.000000 0.471619
0.823914 1.000000 0.471619
1.000000 1.000000 0.471619
0.000000 0.000000 0.767090
0.153381 0.000000 0.767090
0.306763 0.000000 0.767090
0.460327 0.000000 0.767090
0.613708 0.000000 0.767090
0.767090 0.000000 0.767090
0.884521 0.000000 0.737030
1.000000 0.001923 0.714905
0.000000 0.153381 0.767090
0.012024 0.012024 0.872467
0.227142 0.012024 0.872467
0.442261 0.012024 0.872467
0.657349 0.012024 0.872467
0.872467 0.012024 0.872467
1.000000 0.001953 0.800446
1.000000 0.119354 0.706512
0.000000 0.306763 0.767090
0.012024 0.227142 0.872467
0.178284 0.178284 0.823639
0.393341 0.178284 0.823639
0.608582 0.178284 0.823639
0.823639 0.178284 0.823639
0.989929 0.129425 0.774811
1.000000 0.236755 0.694763
0.000000 0.460327 0.767090
0.012024 0.442261 0.872467
0.178284 0.393341 0.823639
0.344574 0.344574 0.774780
0.559692 0.344574 0.774780
0.774780 0.344574 0.774780
0.941071 0.295715 0.726013
1.000000 0.354187 0.677094
0.000000 0.613708 0.767090
0.012024 0.657349 0.872467
0.178284 0.608582 0.823639
0.344574 0.559692 0.774780
0.510834 0.510834 0.725922
0.725922 0.510834 0.725922
0.892212 0.462006 0.677124
1.000000 0.471619 0.647705
0.000000 0.767090 0.767090
0.012024 0.872467 0.872467
0.178284 0.823639 0.823639
0.344574 0.774780 0.774780
0.510834 0.725922 0.725922
0.677094 0.677094 0.677094
0.843384 0.628235 0.628235
1.000000 0.589020 0.589020
0.000000 0.884521 0.737030
0.001953 1.000000 0.800446
0.129425 0.989929 0.774811
0.295715 0.941071 0.726013
0.462006 0.892212 0.677124
0.628235 0.843384 0.628235
0.843384 0.843384 0.628235
1.000000 0.794525 0.589020
0.001923 1.000000 0.714905
0.119354 1.000000 0.706512
0.236755 1.000000 0.694763
0.354187 1.000000 0.677094
0.471619 1.000000 0.647705
0.589020 1.000000 0.589020
0.794525 1.000000 0.589020
1.000000 1.000000 0.589020
0.000000 0.000000 0.884521
0.147491 0.000000 0.884521
0.294769 0.000000 0.884521
0.442261 0.000000 0.884521
0.589752 0.000000 0.884521
0.737030 0.000000 0.884521
0.884521 0.000000 0.884521
1.000000 0.001923 0.857452
0.000000 0.147491 0.884521
0.001953 0.001953 1.000000
0.201508 0.001953 1.000000
0.401062 0.001953 1.000000
0.600891 0.001953 1.000000
0.800446 0.001953 1.000000
1.000000 0.001953 1.000000
1.000000 0.119354 0.853149
0.000000 0.294769 0.884521
0.001953 0.201508 1.000000
0.129425 0.129425 0.989929
0.344543 0.129425 0.989929
0.559692 0.129425 0.989929
0.774811 0.129425 0.989929
0.989929 0.129425 0.989929
1.000000 0.236755 0.847382
0.000000 0.442261 0.884521
0.001953 0.401062 1.000000
0.129425 0.344543 0.989929
0.295715 0.295715 0.941071
0.510773 0.295715 0.941071
0.726013 0.295715 0.941071
0.941071 0.295715 0.941071
1.000000 0.354187 0.838562
0.000000 0.589752 0.884521
0.001953 0.600891 1.000000
0.129425 0.559692 0.989929
0.295715 0.510773 0.941071
0.462006 0.462006 0.892212
0.677124 0.462006 0.892212
0.892212 0.462006 0.892212
1.000000 0.471619 0.823914
0.000000 0.737030 0.884521
0.001953 0.800446 1.000000
0.129425 0.774811 0.989929
0.295715 0.726013 0.941071
0.462006 0.677124 0.892212
0.628235 0.628235 0.843384
0.843384 0.628235 0.843384
1.000000 0.589020 0.794525
0.000000 0.884521 0.884521
0.001953 1.000000 1.000000
0.129425 0.989929 0.989929
0.295715 0.941071 0.941071
0.462006 0.892212 0.892212
0.628235 0.843384 0.843384
0.794525 0.794525 0.794525
0.960754 0.745667 0.745667
0.001923 1.000000 0.857452
0.119354 1.000000 0.853149
0.236755 1.000000 0.847382
0.354187 1.000000 0.838562
0.471619 1.000000 0.823914
0.589020 1.000000 0.794525
0.745667 0.960754 0.745667
0.960754 0.960754 0.745667
0.001923 0.001923 1.000000
0.144470 0.001923 1.000000
0.287018 0.001923 1.000000
0.429565 0.001923 1.000000
0.572357 0.001923 1.000000
0.714905 0.001923 1.000000
0.857452 0.001923 1.000000
1.000000 0.001923 1.000000
0.001923 0.144470 1.000000
0.119354 0.119354 1.000000
0.266205 0.119354 1.000000
0.412842 0.119354 1.000000
0.559692 0.119354 1.000000
0.706512 0.119354 1.000000
0.853149 0.119354 1.000000
1.000000 0.119354 1.000000
0.001923 0.287018 1.000000
0.119354 0.266205 1.000000
0.236755 0.236755 1.000000
0.389374 0.236755 1.000000
0.542175 0.236755 1.000000
0.694763 0.236755 1.000000
0.847382 0.236755 1.000000
1.000000 0.236755 1.000000
0.001923 0.429565 1.000000
0.119354 0.412842 1.000000
0.236755 0.389374 1.000000
0.354187 0.354187 1.000000
0.515656 0.354187 1.000000
0.677094 0.354187 1.000000
0.838562 0.354187 1.000000
1.000000 0.354187 1.000000
0.001923 0.572357 1.000000
0.119354 0.559692 1.000000
0.236755 0.542175 1.000000
0.354187 0.515656 1.000000
0.471619 0.471619 1.000000
0.647705 0.471619 1.000000
0.823914 0.471619 1.000000
1.000000 0.471619 1.000000
0.001923 0.714905 1.000000
0.119354 0.706512 1.000000
0.236755 0.694763 1.000000
0.354187 0.677094 1.000000
0.471619 0.647705 1.000000
0.589020 0.589020 1.000000
0.794525 0.589020 1.000000
1.000000 0.589020 1.000000
0.001923 0.857452 1.000000
0.119354 0.853149 1.000000
0.236755 0.847382 1.000000
0.354187 0.838562 1.000000
0.471619 0.823914 1.000000
0.589020 0.794525 1.000000
0.745667 0.745667 0.960754
0.960754 0.745667 0.960754
0.001923 1.000000 1.000000
0.119354 1.000000 1.000000
0.236755 1.000000 1.000000
0.354187 1.000000 1.000000
0.471619 1.000000 1.000000
0.589020 1.000000 1.000000
0.745667 0.960754 0.960754
0.911926 0.911926 0.911926
