assets/lut/Saturate.CUBE
#Created by: Adobe Photoshop Export Color Lookup Plugin
TITLE "Screenshot 2024-03-20 at 07.27.32.png"
#LUT size
LUT_3D_SIZE 5
#data domain
#LUT data points
DOMAIN_MIN 0.000000 0.000000 0.000000
DOMAIN_MAX 0.903226 0.903226 0.903226
0.089996 0.089996 0.089996
0.380951 0.004517 0.004517
0.590942 0.000000 0.000000
0.796448 0.000000 0.000000
1.000000 0.001923 0.001923
0.004517 0.380951 0.004517
0.380951 0.380951 0.004517
0.590942 0.295471 0.000000
0.796448 0.265411 0.000000
1.000000 0.251434 0.001923
0.000000 0.590942 0.000000
0.295471 0.590942 0.000000
0.590942 0.590942 0.000000
0.796448 0.531036 0.000000
1.000000 0.500977 0.001923
0.000000 0.796448 0.000000
0.265411 0.796448 0.000000
0.531036 0.796448 0.000000
0.796448 0.796448 0.000000
1.000000 0.750488 0.001923
0.001923 1.000000 0.001923
0.251434 1.000000 0.001923
0.500977 1.000000 0.001923
0.750488 1.000000 0.001923
1.000000 1.000000 0.001923
0.004517 0.004517 0.380951
0.380951 0.004517 0.380951
0.590942 0.000000 0.295471
0.796448 0.000000 0.265411
1.000000 0.001923 0.251434
0.004517 0.380951 0.380951
0.295471 0.295471 0.295471
0.586426 0.209991 0.209991
0.877411 0.124481 0.124481
1.000000 0.207397 0.207397
0.000000 0.590942 0.295471
0.209991 0.586426 0.209991
0.586426 0.586426 0.209991
0.877411 0.500946 0.124481
1.000000 0.471527 0.207397
0.000000 0.796448 0.265411
0.124481 0.877411 0.124481
0.500946 0.877411 0.124481
0.877411 0.877411 0.124481
1.000000 0.735870 0.207397
0.001923 1.000000 0.251434
0.207397 1.000000 0.207397
0.471527 1.000000 0.207397
0.735870 1.000000 0.207397
1.000000 1.000000 0.207397
0.000000 0.000000 0.590942
0.295471 0.000000 0.590942
0.590942 0.000000 0.590942
0.796448 0.000000 0.531036
1.000000 0.001923 0.500977
0.000000 0.295471 0.590942
0.209991 0.209991 0.586426
0.586426 0.209991 0.586426
0.877411 0.124481 0.500946
1.000000 0.207397 0.471527
0.000000 0.590942 0.590942
0.209991 0.586426 0.586426
0.500946 0.500946 0.500946
0.791931 0.415436 0.415436
1.000000 0.412872 0.412872
0.000000 0.796448 0.531036
0.124481 0.877411 0.500946
0.415436 0.791931 0.415436
0.791931 0.791931 0.415436
1.000000 0.706451 0.412872
0.001923 1.000000 0.500977
0.207397 1.000000 0.471527
0.412872 1.000000 0.412872
0.706451 1.000000 0.412872
1.000000 1.000000 0.412872
0.000000 0.000000 0.796448
0.265411 0.000000 0.796448
0.531036 0.000000 0.796448
0.796448 0.000000 0.796448
1.000000 0.001923 0.750488
0.000000 0.265411 0.796448
0.124481 0.124481 0.877411
0.500946 0.124481 0.877411
0.877411 0.124481 0.877411
1.000000 0.207397 0.735870
0.000000 0.531036 0.796448
0.124481 0.500946 0.877411
0.415436 0.415436 0.791931
0.791931 0.415436 0.791931
1.000000 0.412872 0.706451
0.000000 0.796448 0.796448
0.124481 0.877411 0.877411
0.415436 0.791931 0.791931
0.706451 0.706451 0.706451
0.997406 0.620972 0.620972
0.001923 1.000000 0.750488
0.207397 1.000000 0.735870
0.412872 1.000000 0.706451
0.620972 0.997406 0.620972
0.997406 0.997406 0.620972
0.001923 0.001923 1.000000
0.251434 0.001923 1.000000
0.500977 0.001923 1.000000
0.750488 0.001923 1.000000
1.000000 0.001923 1.000000
0.001923 0.251434 1.000000
0.207397 0.207397 1.000000
0.471527 0.207397 1.000000
0.735870 0.207397 1.000000
1.000000 0.207397 1.000000
0.001923 0.500977 1.000000
0.207397 0.471527 1.000000
0.412872 0.412872 1.000000
0.706451 0.412872 1.000000
1.000000 0.412872 1.000000
0.001923 0.750488 1.000000
0.207397 0.735870 1.000000
0.412872 0.706451 1.000000
0.620972 0.620972 0.997406
0.997406 0.620972 0.997406
0.001923 1.000000 1.000000
0.207397 1.000000 1.000000
0.412872 1.000000 1.000000
0.620972 0.997406 0.997406
0.911926 0.911926 0.911926
