assets/lut/Sepia.CUBE
#Created by: Adobe Photoshop Export Color Lookup Plugin
TITLE "Screenshot 2024-03-20 at 07.27.32.png"
#LUT size
LUT_3D_SIZE 5
#data domain
#LUT data points
DOMAIN_MIN 0.000000 0.000000 0.000000
DOMAIN_MAX 0.903226 0.903226 0.903226
0.000000 0.000000 0.000000
0.000000 0.000000 0.000000
0.000000 0.000000 0.000000
0.000000 0.000000 0.000000
0.000000 0.000000 0.000000
0.000000 0.000000 0.000000
0.000000 0.000000 0.000000
0.000000 0.000000 0.000000
0.000000 0.000000 0.000000
0.000000 0.000000 0.000000
0.000000 0.000000 0.000000
0.000000 0.000000 0.000000
0.000000 0.000000 0.000000
0.000000 0.000000 0.000000
0.000000 0.000000 0.000000
0.000000 0.000000 0.000000
0.000000 0.000000 0.000000
0.000000 0.000000 0.000000
0.000000 0.000000 0.000000
0.000000 0.000000 0.000000
0.000000 0.000000 0.000000
0.000000 0.000000 0.000000
0.000000 0.000000 0.000000
0.000000 0.000000 0.000000
0.000000 0.000000 0.000000
0.000000 0.000000 0.000000
0.000000 0.000000 0.000000
0.000000 0.000000 0.000000
0.000000 0.000000 0.000000
0.000000 0.000000 0.000000
0.000000 0.000000 0.000000
0.274170 0.194122 0.121552
0.274170 0.194122 0.121552
0.274170 0.194122 0.121552
0.274170 0.194122 0.121552
0.000000 0.000000 0.000000
0.274170 0.194122 0.121552
0.274170 0.194122 0.121552
0.274170 0.194122 0.121552
0.274170 0.194122 0.121552
0.000000 0.000000 0.000000
0.274170 0.194122 0.121552
0.274170 0.194122 0.121552
0.274170 0.194122 0.121552
0.274170 0.194122 0.121552
0.000000 0.000000 0.000000
0.274170 0.194122 0.121552
0.274170 0.194122 0.121552
0.274170 0.194122 0.121552
0.274170 0.194122 0.121552
0.000000 0.000000 0.000000
0.000000 0.000000 0.000000
0.000000 0.000000 0.000000
0.000000 0.000000 0.000000
0.000000 0.000000 0.000000
0.000000 0.000000 0.000000
0.274170 0.194122 0.121552
0.274170 0.194122 0.121552
0.274170 0.194122 0.121552
0.274170 0.194122 0.121552
0.000000 0.000000 0.000000
0.274170 0.194122 0.121552
0.500946 0.429169 0.353790
0.500946 0.429169 0.353790
0.500946 0.429169 0.353790
0.000000 0.000000 0.000000
0.274170 0.194122 0.121552
0.500946 0.429169 0.353790
0.500946 0.429169 0.353790
0.500946 0.429169 0.353790
0.000000 0.000000 0.000000
0.274170 0.194122 0.121552
0.500946 0.429169 0.353790
0.500946 0.429169 0.353790
0.500946 0.429169 0.353790
0.000000 0.000000 0.000000
0.000000 0.000000 0.000000
0.000000 0.000000 0.000000
0.000000 0.000000 0.000000
0.000000 0.000000 0.000000
0.000000 0.000000 0.000000
0.274170 0.194122 0.121552
0.274170 0.194122 0.121552
0.274170 0.194122 0.121552
0.274170 0.194122 0.121552
0.000000 0.000000 0.000000
0.274170 0.194122 0.121552
0.500946 0.429169 0.353790
0.500946 0.429169 0.353790
0.500946 0.429169 0.353790
0.000000 0.000000 0.000000
0.274170 0.194122 0.121552
0.500946 0.429169 0.353790
0.712738 0.664246 0.609589
0.712738 0.664246 0.609589
0.000000 0.000000 0.000000
0.274170 0.194122 0.121552
0.500946 0.429169 0.353790
0.712738 0.664246 0.609589
0.712738 0.664246 0.609589
0.000000 0.000000 0.000000
0.000000 0.000000 0.000000
0.000000 0.000000 0.000000
0.000000 0.000000 0.000000
0.000000 0.000000 0.000000
0.000000 0.000000 0.000000
0.274170 0.194122 0.121552
0.274170 0.194122 0.121552
0.274170 0.194122 0.121552
0.274170 0.194122 0.121552
0.000000 0.000000 0.000000
0.274170 0.194122 0.121552
0.500946 0.429169 0.353790
0.500946 0.429169 0.353790
0.500946 0.429169 0.353790
0.000000 0.000000 0.000000
0.274170 0.194122 0.121552
0.500946 0.429169 0.353790
0.712738 0.664246 0.609589
0.712738 0.664246 0.609589
0.000000 0.000000 0.000000
0.274170 0.194122 0.121552
0.500946 0.429169 0.353790
0.712738 0.664246 0.609589
0.915283 0.899261 0.880219
