assets/lut/Sepia.CUBE
#Created by: Adobe Photoshop Export Color Lookup Plugin
TITLE "Screenshot 2024-03-20 at 07.27.32.png"
#LUT size
LUT_3D_SIZE 8
#data domain
#LUT data points
DOMAIN_MIN 0.000000 0.000000 0.000000
DOMAIN_MAX 0.903226 0.903226 0.903226
0.000000 0.000000 0.000000
0.000000 0.000000 0.000000
0.000000 0.000000 0.000000
0.000000 0.000000 0.000000
0.000000 0.000000 0.000000
0.000000 0.000000 0.000000
0.000000 0.000000 0.000000
0.000000 0.000000 0.000000
0.000000 0.000000 0.000000
0.000000 0.000000 0.000000
0.000000 0.000000 0.000000
0.000000 0.000000 0.000000
0.000000 0.000000 0.000000
0.000000 0.000000 0.000000
0.000000 0.000000 0.000000
0.000000 0.000000 0.000000
0.000000 0.000000 0.000000
0.000000 0.000000 0.000000
0.000000 0.000000 0.000000
0.000000 0.000000 0.000000
0.000000 0.000000 0.000000
0.000000 0.000000 0.000000
0.000000 0.000000 0.000000
0.000000 0.000000 0.000000
0.000000 0.000000 0.000000
0.000000 0.000000 0.000000
0.000000 0.000000 0.000000
0.000000 0.000000 0.000000
0.000000 0.000000 0.000000
0.000000 0.000000 0.000000
0.000000 0.000000 0.000000
0.000000 0.000000 0.000000
0.000000 0.000000 0.000000
0.000000 0.000000 0.000000
0.000000 0.000000 0.000000
0.000000 0.000000 0.000000
0.000000 0.000000 0.000000
0.000000 0.000000 0.000000
0.000000 0.000000 0.000000
0.000000 0.000000 0.000000
0.000000 0.000000 0.000000
0.000000 0.000000 0.000000
0.000000 0.000000 0.000000
0.000000 0.000000 0.000000
0.000000 0.000000 0.000000
0.000000 0.000000 0.000000
0.000000 0.000000 0.000000
0.000000 0.000000 0.000000
0.000000 0.000000 0.000000
0.000000 0.000000 0.000000
0.000000 0.000000 0.000000
0.000000 0.000000 0.000000
0.000000 0.000000 0.000000
0.000000 0.000000 0.000000
0.000000 0.000000 0.000000
0.000000 0.000000 0.000000
0.000000 0.000000 0.000000
0.000000 0.000000 0.000000
0.000000 0.000000 0.000000
0.000000 0.000000 0.000000
0.000000 0.000000 0.000000
0.000000 0.000000 0.000000
0.000000 0.000000 0.000000
0.000000 0.000000 0.000000
0.000000 0.000000 0.000000
0.000000 0.000000 0.000000
0.000000 0.000000 0.000000
0.000000 0.000000 0.000000
0.000000 0.000000 0.000000
0.000000 0.000000 0.000000
0.000000 0.000000 0.000000
0.000000 0.000000 0.000000
0.000000 0.000000 0.000000
0.168549 0.093384 0.035706
0.168549 0.093384 0.035706
0.168549 0.093384 0.035706
0.168549 0.093384 0.035706
0.168549 0.093384 0.035706
0.168549 0.093384 0.035706
0.168549 0.093384 0.035706
0.000000 0.000000 0.000000
0.168549 0.093384 0.035706
0.168549 0.093384 0.035706
0.168549 0.093384 0.035706
0.168549 0.093384 0.035706
0.168549 0.093384 0.035706
0.168549 0.093384 0.035706
0.168549 0.093384 0.035706
0.000000 0.000000 0.000000
0.168549 0.093384 0.035706
0.168549 0.093384 0.035706
0.168549 0.093384 0.035706
0.168549 0.093384 0.035706
0.168549 0.093384 0.035706
0.168549 0.093384 0.035706
0.168549 0.093384 0.035706
0.000000 0.000000 0.000000
0.168549 0.093384 0.035706
0.168549 0.093384 0.035706
0.168549 0.093384 0.035706
0.168549 0.093384 0.035706
0.168549 0.093384 0.035706
0.168549 0.093384 0.035706
0.168549 0.093384 0.035706
0.000000 0.000000 0.000000
0.168549 0.093384 0.035706
0.168549 0.093384 0.035706
0.168549 0.093384 0.035706
0.168549 0.093384 0.035706
0.168549 0.093384 0.035706
0.168549 0.093384 0.035706
0.168549 0.093384 0.035706
0.000000 0.000000 0.000000
0.168549 0.093384 0.035706
0.168549 0.093384 0.035706
0.168549 0.093384 0.035706
0.168549 0.093384 0.035706
0.168549 0.093384 0.035706
0.168549 0.093384 0.035706
0.168549 0.093384 0.035706
0.000000 0.000000 0.000000
0.168549 0.093384 0.035706
0.168549 0.093384 0.035706
0.168549 0.093384 0.035706
0.168549 0.093384 0.035706
0.168549 0.093384 0.035706
0.168549 0.093384 0.035706
0.168549 0.093384 0.035706
0.000000 0.000000 0.000000
0.000000 0.000000 0.000000
0.000000 0.000000 0.000000
0.000000 0.000000 0.000000
0.000000 0.000000 0.000000
0.000000 0.000000 0.000000
0.000000 0.000000 0.000000
0.000000 0.000000 0.000000
0.000000 0.000000 0.000000
0.168549 0.093384 0.035706
0.168549 0.093384 0.035706
0.168549 0.093384 0.035706
0.168549 0.093384 0.035706
0.168549 0.093384 0.035706
0.168549 0.093384 0.035706
0.168549 0.093384 0.035706
0.000000 0.000000 0.000000
0.168549 0.093384 0.035706
0.307922 0.227692 0.152802
0.307922 0.227692 0.152802
0.307922 0.227692 0.152802
0.307922 0.227692 0.152802
0.307922 0.227692 0.152802
0.307922 0.227692 0.152802
0.000000 0.000000 0.000000
0.168549 0.093384 0.035706
0.307922 0.227692 0.152802
0.307922 0.227692 0.152802
0.307922 0.227692 0.152802
0.307922 0.227692 0.152802
0.307922 0.227692 0.152802
0.307922 0.227692 0.152802
0.000000 0.000000 0.000000
0.168549 0.093384 0.035706
0.307922 0.227692 0.152802
0.307922 0.227692 0.152802
0.307922 0.227692 0.152802
0.307922 0.227692 0.152802
0.307922 0.227692 0.152802
0.307922 0.227692 0.152802
0.000000 0.000000 0.000000
0.168549 0.093384 0.035706
0.307922 0.227692 0.152802
0.307922 0.227692 0.152802
0.307922 0.227692 0.152802
0.307922 0.227692 0.152802
0.307922 0.227692 0.152802
0.307922 0.227692 0.152802
0.000000 0.000000 0.000000
0.168549 0.093384 0.035706
0.307922 0.227692 0.152802
0.307922 0.227692 0.152802
0.307922 0.227692 0.152802
0.307922 0.227692 0.152802
0.307922 0.227692 0.152802
0.307922 0.227692 0.152802
0.000000 0.000000 0.000000
0.168549 0.093384 0.035706
0.307922 0.227692 0.152802
0.307922 0.227692 0.152802
0.307922 0.227692 0.152802
0.307922 0.227692 0.152802
0.307922 0.227692 0.152802
0.307922 0.227692 0.152802
0.000000 0.000000 0.000000
0.000000 0.000000 0.000000
0.000000 0.000000 0.000000
0.000000 0.000000 0.000000
0.000000 0.000000 0.000000
0.000000 0.000000 0.000000
0.000000 0.000000 0.000000
0.000000 0.000000 0.000000
0.000000 0.000000 0.000000
0.168549 0.093384 0.035706
0.168549 0.093384 0.035706
0.168549 0.093384 0.035706
0.168549 0.093384 0.035706
0.168549 0.093384 0.035706
0.168549 0.093384 0.035706
0.168549 0.093384 0.035706
0.000000 0.000000 0.000000
0.168549 0.093384 0.035706
0.307922 0.227692 0.152802
0.307922 0.227692 0.152802
0.307922 0.227692 0.152802
0.307922 0.227692 0.152802
0.307922 0.227692 0.152802
0.307922 0.227692 0.152802
0.000000 0.000000 0.000000
0.168549 0.093384 0.035706
0.307922 0.227692 0.152802
0.438110 0.362000 0.284454
0.438110 0.362000 0.284454
0.438110 0.362000 0.284454
0.438110 0.362000 0.284454
0.438110 0.362000 0.284454
0.000000 0.000000 0.000000
0.168549 0.093384 0.035706
0.307922 0.227692 0.152802
0.438110 0.362000 0.284454
0.438110 0.362000 0.284454
0.438110 0.362000 0.284454
0.438110 0.362000 0.284454
0.438110 0.362000 0.284454
0.000000 0.000000 0.000000
0.168549 0.093384 0.035706
0.307922 0.227692 0.152802
0.438110 0.362000 0.284454
0.438110 0.362000 0.284454
0.438110 0.362000 0.284454
0.438110 0.362000 0.284454
0.438110 0.362000 0.284454
0.000000 0.000000 0.000000
0.168549 0.093384 0.035706
0.307922 0.227692 0.152802
0.438110 0.362000 0.284454
0.438110 0.362000 0.284454
0.438110 0.362000 0.284454
0.438110 0.362000 0.284454
0.438110 0.362000 0.284454
0.000000 0.000000 0.000000
0.168549 0.093384 0.035706
0.307922 0.227692 0.152802
0.438110 0.362000 0.284454
0.438110 0.362000 0.284454
0.438110 0.362000 0.284454
0.438110 0.362000 0.284454
0.438110 0.362000 0.284454
0.000000 0.000000 0.000000
0.000000 0.000000 0.000000
0.000000 0.000000 0.000000
0.000000 0.000000 0.000000
0.000000 0.000000 0.000000
0.000000 0.000000 0.000000
0.000000 0.000000 0.000000
0.000000 0.000000 0.000000
0.000000 0.000000 0.000000
0.168549 0.093384 0.035706
0.168549 0.093384 0.035706
0.168549 0.093384 0.035706
0.168549 0.093384 0.035706
0.168549 0.093384 0.035706
0.168549 0.093384 0.035706
0.168549 0.093384 0.035706
0.000000 0.000000 0.000000
0.168549 0.093384 0.035706
0.307922 0.227692 0.152802
0.307922 0.227692 0.152802
0.307922 0.227692 0.152802
0.307922 0.227692 0.152802
0.307922 0.227692 0.152802
0.307922 0.227692 0.152802
0.000000 0.000000 0.000000
0.168549 0.093384 0.035706
0.307922 0.227692 0.152802
0.438110 0.362000 0.284454
0.438110 0.362000 0.284454
0.438110 0.362000 0.284454
0.438110 0.362000 0.284454
0.438110 0.362000 0.284454
0.000000 0.000000 0.000000
0.168549 0.093384 0.035706
0.307922 0.227692 0.152802
0.438110 0.362000 0.284454
0.562653 0.496338 0.424896
0.562653 0.496338 0.424896
0.562653 0.496338 0.424896
0.562653 0.496338 0.424896
0.000000 0.000000 0.000000
0.168549 0.093384 0.035706
0.307922 0.227692 0.152802
0.438110 0.362000 0.284454
0.562653 0.496338 0.424896
0.562653 0.496338 0.424896
0.562653 0.496338 0.424896
0.562653 0.496338 0.424896
0.000000 0.000000 0.000000
0.168549 0.093384 0.035706
0.307922 0.227692 0.152802
0.438110 0.362000 0.284454
0.562653 0.496338 0.424896
0.562653 0.496338 0.424896
0.562653 0.496338 0.424896
0.562653 0.496338 0.424896
0.000000 0.000000 0.000000
0.168549 0.093384 0.035706
0.307922 0.227692 0.152802
0.438110 0.362000 0.284454
0.562653 0.496338 0.424896
0.562653 0.496338 0.424896
0.562653 0.496338 0.424896
0.562653 0.496338 0.424896
0.000000 0.000000 0.000000
0.000000 0.000000 0.000000
0.000000 0.000000 0.000000
0.000000 0.000000 0.000000
0.000000 0.000000 0.000000
0.000000 0.000000 0.000000
0.000000 0.000000 0.000000
0.000000 0.000000 0.000000
0.000000 0.000000 0.000000
0.168549 0.093384 0.035706
0.168549 0.093384 0.035706
0.168549 0.093384 0.035706
0.168549 0.093384 0.035706
0.168549 0.093384 0.035706
0.168549 0.093384 0.035706
0.168549 0.093384 0.035706
0.000000 0.000000 0.000000
0.168549 0.093384 0.035706
0.307922 0.227692 0.152802
0.307922 0.227692 0.152802
0.307922 0.227692 0.152802
0.307922 0.227692 0.152802
0.307922 0.227692 0.152802
0.307922 0.227692 0.152802
0.000000 0.000000 0.000000
0.168549 0.093384 0.035706
0.307922 0.227692 0.152802
0.438110 0.362000 0.284454
0.438110 0.362000 0.284454
0.438110 0.362000 0.284454
0.438110 0.362000 0.284454
0.438110 0.362000 0.284454
0.000000 0.000000 0.000000
0.168549 0.093384 0.035706
0.307922 0.227692 0.152802
0.438110 0.362000 0.284454
0.562653 0.496338 0.424896
0.562653 0.496338 0.424896
0.562653 0.496338 0.424896
0.562653 0.496338 0.424896
0.000000 0.000000 0.000000
0.168549 0.093384 0.035706
0.307922 0.227692 0.152802
0.438110 0.362000 0.284454
0.562653 0.496338 0.424896
0.683105 0.630646 0.571808
0.683105 0.630646 0.571808
0.683105 0.630646 0.571808
0.000000 0.000000 0.000000
0.168549 0.093384 0.035706
0.307922 0.227692 0.152802
0.438110 0.362000 0.284454
0.562653 0.496338 0.424896
0.683105 0.630646 0.571808
0.683105 0.630646 0.571808
0.683105 0.630646 0.571808
0.000000 0.000000 0.000000
0.168549 0.093384 0.035706
0.307922 0.227692 0.152802
0.438110 0.362000 0.284454
0.562653 0.496338 0.424896
0.683105 0.630646 0.571808
0.683105 0.630646 0.571808
0.683105 0.630646 0.571808
0.000000 0.000000 0.000000
0.000000 0.000000 0.000000
0.000000 0.000000 0.000000
0.000000 0.000000 0.000000
0.000000 0.000000 0.000000
0.000000 0.000000 0.000000
0.000000 0.000000 0.000000
0.000000 0.000000 0.000000
0.000000 0.000000 0.000000
0.168549 0.093384 0.035706
0.168549 0.093384 0.035706
0.168549 0.093384 0.035706
0.168549 0.093384 0.035706
0.168549 0.093384 0.035706
0.168549 0.093384 0.035706
0.168549 0.093384 0.035706
0.000000 0.000000 0.000000
0.168549 0.093384 0.035706
0.307922 0.227692 0.152802
0.307922 0.227692 0.152802
0.307922 0.227692 0.152802
0.307922 0.227692 0.152802
0.307922 0.227692 0.152802
0.307922 0.227692 0.152802
0.000000 0.000000 0.000000
0.168549 0.093384 0.035706
0.307922 0.227692 0.152802
0.438110 0.362000 0.284454
0.438110 0.362000 0.284454
0.438110 0.362000 0.284454
0.438110 0.362000 0.284454
0.438110 0.362000 0.284454
0.000000 0.000000 0.000000
0.168549 0.093384 0.035706
0.307922 0.227692 0.152802
0.438110 0.362000 0.284454
0.562653 0.496338 0.424896
0.562653 0.496338 0.424896
0.562653 0.496338 0.424896
0.562653 0.496338 0.424896
0.000000 0.000000 0.000000
0.168549 0.093384 0.035706
0.307922 0.227692 0.152802
0.438110 0.362000 0.284454
0.562653 0.496338 0.424896
0.683105 0.630646 0.571808
0.683105 0.630646 0.571808
0.683105 0.630646 0.571808
0.000000 0.000000 0.000000
0.168549 0.093384 0.035706
0.307922 0.227692 0.152802
0.438110 0.362000 0.284454
0.562653 0.496338 0.424896
0.683105 0.630646 0.571808
0.800476 0.764954 0.723846
0.800476 0.764954 0.723846
0.000000 0.000000 0.000000
0.168549 0.093384 0.035706
0.307922 0.227692 0.152802
0.438110 0.362000 0.284454
0.562653 0.496338 0.424896
0.683105 0.630646 0.571808
0.800476 0.764954 0.723846
0.800476 0.764954 0.723846
0.000000 0.000000 0.000000
0.000000 0.000000 0.000000
0.000000 0.000000 0.000000
0.000000 0.000000 0.000000
0.000000 0.000000 0.000000
0.000000 0.000000 0.000000
0.000000 0.000000 0.000000
0.000000 0.000000 0.000000
0.000000 0.000000 0.000000
0.168549 0.093384 0.035706
0.168549 0.093384 0.035706
0.168549 0.093384 0.035706
0.168549 0.093384 0.035706
0.168549 0.093384 0.035706
0.168549 0.093384 0.035706
0.168549 0.093384 0.035706
0.000000 0.000000 0.000000
0.168549 0.093384 0.035706
0.307922 0.227692 0.152802
0.307922 0.227692 0.152802
0.307922 0.227692 0.152802
0.307922 0.227692 0.152802
0.307922 0.227692 0.152802
0.307922 0.227692 0.152802
0.000000 0.000000 0.000000
0.168549 0.093384 0.035706
0.307922 0.227692 0.152802
0.438110 0.362000 0.284454
0.438110 0.362000 0.284454
0.438110 0.362000 0.284454
0.438110 0.362000 0.284454
0.438110 0.362000 0.284454
0.000000 0.000000 0.000000
0.168549 0.093384 0.035706
0.307922 0.227692 0.152802
0.438110 0.362000 0.284454
0.562653 0.496338 0.424896
0.562653 0.496338 0.424896
0.562653 0.496338 0.424896
0.562653 0.496338 0.424896
0.000000 0.000000 0.000000
0.168549 0.093384 0.035706
0.307922 0.227692 0.152802
0.438110 0.362000 0.284454
0.562653 0.496338 0.424896
0.683105 0.630646 0.571808
0.683105 0.630646 0.571808
0.683105 0.630646 0.571808
0.000000 0.000000 0.000000
0.168549 0.093384 0.035706
0.307922 0.227692 0.152802
0.438110 0.362000 0.284454
0.562653 0.496338 0.424896
0.683105 0.630646 0.571808
0.800476 0.764954 0.723846
0.800476 0.764954 0.723846
0.000000 0.000000 0.000000
0.168549 0.093384 0.035706
0.307922 0.227692 0.152802
0.438110 0.362000 0.284454
0.562653 0.496338 0.424896
0.683105 0.630646 0.571808
0.800476 0.764954 0.723846
0.915283 0.899261 0.880219
